;FLAVOR:Marlin
;TIME:555
;Filament used: 0.606117m
;Layer height: 0.2
;Generated with Cura_SteamEngine master
M190 S60
M104 S210
M109 S210
M82 ;absolute extrusion mode
G21 ;metric values
G90 ;absolute positioning
M82 ;set extruder to absolute mode
M107 ;start with the fan off
G28 X0 Y0 ;move X/Y to min endstops
G28 Z0 ;move Z to min endstops
G92 E0 ;zero the extruded length
G1 F200 E3 ;extrude 3mm of feed stock
G92 E0 ;zero the extruded length again
G1 F9000
M117 PRINTING ...
G92 E0
G1 F1500 E-6.5
;LAYER_COUNT:79
;LAYER:0
M107
G0 F3600 X68.946 Y71.699 Z0.3
;TYPE:SUPPORT
G1 F1500 E0
G1 F1800 X69.129 Y73.792 E0.10482
G1 X68.926 Y74.065 E0.12179
G1 X68.921 Y79.08 E0.37199
G1 X69.128 Y79.358 E0.38928
G1 X68.94 Y81.505 E0.49681
G1 X67.721 Y79.599 E0.60968
G1 X67.171 Y79.345 E0.63991
G1 X67.172 Y73.764 E0.91834
G1 X67.721 Y73.526 E0.9482
G1 X68.946 Y71.699 E1.05794
G0 F3600 X68.765 Y74.648
G1 F1800 X67.332 Y74.648 E1.12943
G0 F3600 X67.332 Y77.314
G1 F1800 X68.762 Y77.314 E1.20077
G0 F3600 X68.912 Y79.98
G1 F1800 X68.154 Y79.98 E1.23859
G1 F1500 E-5.26141
G0 F3600 X69.209 Y71.554
G0 X69.777 Y70.986
G0 X71.84 Y70.892
G1 F1500 E1.23859
G1 F1800 X71.91 Y70.831 E1.24322
G1 X71.949 Y70.748 E1.2478
G1 X72.474 Y70.748 E1.27399
G1 X72.192 Y70.923 E1.29055
G1 X71.84 Y70.892 E1.30818
G0 F3600 X75.136 Y70.713
G1 F1800 X76.758 Y69.994 E1.39669
G1 X77.164 Y70.036 E1.41706
G1 X77.259 Y69.996 E1.4222
G1 X77.668 Y70.04 E1.44272
G1 X77.76 Y69.998 E1.44777
G1 X78.151 Y70.041 E1.46739
G1 X78.394 Y69.931 E1.4807
G1 X78.975 Y70.111 E1.51105
G1 X79.625 Y69.932 E1.54468
G1 X79.855 Y70.037 E1.5573
G1 X80.248 Y69.991 E1.57704
G1 X80.345 Y70.036 E1.58237
G1 X80.752 Y69.992 E1.6028
G1 X80.85 Y70.035 E1.60813
G1 X81.241 Y69.994 E1.62775
G1 X82.86 Y70.713 E1.71613
G1 X80.399 Y70.713 E1.83891
G1 X80.213 Y70.9 E1.85207
G1 X77.786 Y70.9 E1.97315
G1 X77.6 Y70.713 E1.98631
G1 X75.136 Y70.713 E2.10924
G0 F3600 X85.525 Y70.761
G1 F1800 X87.071 Y70.769 E2.18637
G1 X87.477 Y70.385 E2.21425
G1 X87.515 Y69.69 E2.24897
G1 X87.685 Y69.612 E2.25831
G1 X88.82 Y69.446 E2.31553
G1 X89.471 Y69.446 E2.34801
G1 X90.431 Y70.406 E2.41575
G1 X89.185 Y72.594 E2.54136
G1 X89.369 Y73.141 E2.57016
G1 X90.829 Y73.774 E2.64955
G1 X90.829 Y79.377 E2.92908
G1 X90.441 Y79.541 E2.9501
G1 X89.013 Y80.981 E3.05128
G1 X88.872 Y79.356 E3.13265
G1 X89.076 Y79.079 E3.14982
G1 X89.076 Y74.062 E3.40011
G1 X88.872 Y73.786 E3.41724
G1 X89.022 Y72.09 E3.50218
G1 X88.988 Y72.043 E3.50508
G1 X89.039 Y71.464 E3.53407
G1 X88.313 Y70.738 E3.5853
G1 X85.859 Y70.949 E3.70818
G1 X85.525 Y70.761 E3.7273
G0 F3600 X87.978 Y70.606
G1 F1800 X87.978 Y69.73 E3.771
G0 F3600 X89.155 Y71.982
G1 F1800 X89.349 Y71.982 E3.78068
G0 F3600 X90.644 Y73.869
G1 F1800 X90.644 Y79.283 E4.05079
G0 F3600 X89.779 Y79.98
G1 F1800 X89.086 Y79.98 E4.08536
G0 F3600 X89.236 Y77.314
G1 F1800 X90.669 Y77.314 E4.15686
G0 F3600 X90.669 Y74.648
G1 F1800 X89.236 Y74.648 E4.22835
G1 F1500 E-2.27165
G0 F3600 X88.791 Y71.554
G0 X88.223 Y70.986
G0 X79.98 Y70.74
G1 F1500 E4.22835
G1 F1800 X79.98 Y70.183 E4.25614
G0 F3600 X77.314 Y70.163
G1 F1800 X77.314 Y70.553 E4.27559
G1 F1500 E-2.22441
G0 F3600 X69.777 Y70.986
G0 X69.209 Y71.554
G0 X69.209 Y81.589
G0 X69.777 Y82.157
G0 X72.381 Y82.205
G1 F1500 E4.27559
G1 F1800 X72.446 Y82.244 E4.27938
G1 X85.563 Y82.244 E4.93379
G1 X85.626 Y82.206 E4.93746
G1 X86.308 Y82.265 E4.97161
G1 X86.17 Y82.58 E4.98877
G1 X71.835 Y82.574 E5.70394
G1 X71.715 Y82.263 E5.72057
G1 X72.381 Y82.205 E5.75393
G1 F1500 E-0.74607
G0 F3600 X72.934 Y81.654
G0 X72.381 Y80.373
G0 X86.97 Y73.602
G0 X87.04 Y73.672
;TYPE:WALL-INNER
G1 F1500 E5.75393
G1 F1800 X87.04 Y79.471 E6.04324
G1 X87.341 Y79.47 E6.05826
G1 X87.46 Y80.826 E6.12617
G1 X86.102 Y80.707 E6.19418
G1 X86.103 Y80.393 E6.20984
G1 X71.897 Y80.393 E6.91858
G1 X71.898 Y80.707 E6.93425
G1 X70.54 Y80.826 E7.00226
G1 X70.659 Y79.47 E7.07017
G1 X70.96 Y79.471 E7.08519
G1 X70.96 Y73.672 E7.3745
G1 X70.659 Y73.673 E7.38952
G1 X70.54 Y72.317 E7.45743
G1 X71.898 Y72.436 E7.52544
G1 X71.897 Y72.75 E7.5411
G1 X86.103 Y72.75 E8.24985
G1 X86.102 Y72.436 E8.26551
G1 X87.46 Y72.317 E8.33352
G1 X87.341 Y73.673 E8.40143
G1 X87.04 Y73.672 E8.41645
G0 F3600 X87.44 Y74.074
;TYPE:WALL-OUTER
G1 F1800 X87.44 Y79.069 E8.66565
G1 X87.707 Y79.068 E8.67897
G1 X87.899 Y81.265 E8.789
G1 X85.701 Y81.073 E8.89907
G1 X85.702 Y80.793 E8.91304
G1 X72.298 Y80.793 E9.58177
G1 X72.299 Y81.073 E9.59574
G1 X70.101 Y81.265 E9.70582
G1 X70.293 Y79.068 E9.81584
G1 X70.56 Y79.069 E9.82916
G1 X70.56 Y74.074 E10.07837
G1 X70.293 Y74.075 E10.09169
G1 X70.101 Y71.878 E10.20171
G1 X72.299 Y72.07 E10.31179
G1 X72.298 Y72.35 E10.32576
G1 X85.702 Y72.35 E10.99449
G1 X85.701 Y72.07 E11.00846
G1 X87.899 Y71.878 E11.11853
G1 X87.707 Y74.075 E11.22856
G1 X87.44 Y74.074 E11.24188
G0 F3600 X87.44 Y74.274
G0 X86.94 Y74.274
G0 X86.984 Y73.281
;TYPE:SKIN
G1 F1800 X86.65 Y73.28 E11.25854
G1 X86.65 Y79.863 E11.58697
G1 X86.984 Y79.862 E11.60363
G1 X87.031 Y80.397 E11.63043
G1 X86.494 Y80.35 E11.65732
G1 X86.495 Y80.003 E11.67463
G1 X71.505 Y80.003 E12.42249
G1 X71.506 Y80.35 E12.4398
G1 X70.969 Y80.397 E12.46669
G1 X71.016 Y79.862 E12.49349
G1 X71.35 Y79.863 E12.51015
G1 X71.35 Y73.28 E12.83858
G1 X71.016 Y73.281 E12.85524
G1 X70.969 Y72.746 E12.88204
G1 X71.506 Y72.793 E12.90893
G1 X71.505 Y73.14 E12.92624
G1 X86.495 Y73.14 E13.6741
G1 X86.494 Y72.793 E13.69141
G1 X87.031 Y72.746 E13.7183
G1 X86.984 Y73.281 E13.74509
G0 F3600 X86.399 Y73.388
G1 F1800 X86.116 Y73.671 E13.7749
G1 X85.694 Y73.249
G0 F3600 X85.199 Y73.319
G1 F1800 X86.469 Y74.589 E13.8645
G1 X86.539 Y74.659
G0 F3600 X86.469 Y75.155
G1 F1800 X84.633 Y73.319 E13.99404
G1 X84.563 Y73.249
G0 F3600 X84.067 Y73.319
G1 F1800 X86.469 Y75.721 E14.16352
G1 X86.539 Y75.791
G0 F3600 X86.469 Y76.286
G1 F1800 X83.502 Y73.319 E14.37285
G1 X83.432 Y73.249
G0 F3600 X82.936 Y73.319
G1 F1800 X86.469 Y76.852 E14.62213
G1 X86.539 Y76.922
G0 F3600 X86.469 Y77.418
G1 F1800 X82.37 Y73.319 E14.91133
G1 X82.3 Y73.249
G0 F3600 X81.805 Y73.319
G1 F1800 X86.469 Y77.983 E15.2404
G1 X86.539 Y78.053
G0 F3600 X86.469 Y78.549
G1 F1800 X81.239 Y73.319 E15.60941
G1 X81.169 Y73.249
G0 F3600 X80.673 Y73.319
G1 F1800 X86.469 Y79.115 E16.01835
G1 X86.539 Y79.185
G0 F3600 X86.469 Y79.681
G1 F1800 X80.108 Y73.319 E16.46718
G1 X80.038 Y73.249
G0 F3600 X79.542 Y73.319
G1 F1800 X86.044 Y79.822 E16.92597
G1 X86.114 Y79.892
G0 F3600 X85.479 Y79.822
G1 F1800 X78.976 Y73.319 E17.38479
G1 X78.906 Y73.249
G0 F3600 X78.411 Y73.319
G1 F1800 X84.913 Y79.822 E17.84358
G1 X84.983 Y79.892
G0 F3600 X84.347 Y79.822
G1 F1800 X77.845 Y73.319 E18.30237
G1 X77.775 Y73.249
G0 F3600 X77.279 Y73.319
G1 F1800 X83.782 Y79.822 E18.76119
G1 X83.852 Y79.892
G0 F3600 X83.216 Y79.822
G1 F1800 X76.714 Y73.319 E19.21997
G1 X76.644 Y73.249
G0 F3600 X76.148 Y73.319
G1 F1800 X82.65 Y79.822 E19.67876
G1 X82.72 Y79.892
G0 F3600 X82.085 Y79.822
G1 F1800 X75.582 Y73.319 E20.13758
G1 X75.512 Y73.249
G0 F3600 X75.016 Y73.319
G1 F1800 X81.519 Y79.822 E20.5964
G1 X81.589 Y79.892
G0 F3600 X80.953 Y79.822
G1 F1800 X74.451 Y73.319 E21.05519
G1 X74.381 Y73.249
G0 F3600 X73.885 Y73.319
G1 F1800 X80.388 Y79.822 E21.51401
G1 X80.458 Y79.892
G0 F3600 X79.822 Y79.822
G1 F1800 X73.319 Y73.319 E21.97283
G1 X73.249 Y73.249
G0 F3600 X72.754 Y73.319
G1 F1800 X79.256 Y79.822 E22.43162
G1 X79.326 Y79.892
G0 F3600 X78.691 Y79.822
G1 F1800 X72.188 Y73.319 E22.89044
G1 X72.118 Y73.249
G0 F3600 X71.622 Y73.319
G1 F1800 X78.125 Y79.822 E23.34926
G1 X78.195 Y79.892
G0 F3600 X77.559 Y79.822
G1 F1800 X71.529 Y73.792 E23.77471
G1 X71.459 Y73.722
G0 F3600 X71.529 Y74.357
G1 F1800 X76.994 Y79.822 E24.1603
G1 X77.064 Y79.892
G0 F3600 X76.428 Y79.822
G1 F1800 X71.529 Y74.923 E24.50595
G1 X71.459 Y74.853
G0 F3600 X71.529 Y75.489
G1 F1800 X75.862 Y79.822 E24.81167
G1 X75.932 Y79.892
G0 F3600 X75.296 Y79.822
G1 F1800 X71.529 Y76.054 E25.07748
G1 X71.459 Y75.984
G0 F3600 X71.529 Y76.62
G1 F1800 X74.731 Y79.822 E25.3034
G1 X74.801 Y79.892
G0 F3600 X74.165 Y79.822
G1 F1800 X71.529 Y77.186 E25.48939
G1 X71.459 Y77.116
G0 F3600 X71.529 Y77.752
G1 F1800 X73.599 Y79.822 E25.63544
G1 X73.669 Y79.892
G0 F3600 X73.034 Y79.822
G1 F1800 X71.529 Y78.317 E25.74162
G1 X71.459 Y78.247
G0 F3600 X71.529 Y78.883
G1 F1800 X72.468 Y79.822 E25.80787
G1 X72.538 Y79.892
G0 F3600 X71.902 Y79.822
G1 F1800 X71.529 Y79.449 E25.83419
G0 F3600 X71.325 Y73.022
G1 F1800 X71.253 Y72.95 E25.83927
G1 F1500 E19.33927
G0 F3600 X70.554 Y72.331
G0 X69.284 Y72.443
G0 X68.946 Y71.698
;TIME_ELAPSED:30.427945
;LAYER:1
M140 S60
M106 S255
G0 F5400 X68.946 Y71.698 Z0.5
;TYPE:SUPPORT
G1 F1500 E25.83927
G1 F2700 X69.128 Y73.79 E25.90911
G1 X68.925 Y74.063 E25.92043
G1 X68.923 Y76.574 E26.00394
G1 X68.921 Y79.08 E26.08729
G1 X69.128 Y79.358 E26.09882
G1 X68.94 Y81.505 E26.1705
G1 X67.721 Y79.599 E26.24576
G1 X67.171 Y79.345 E26.2659
G1 X67.172 Y73.764 E26.45153
G1 X67.72 Y73.527 E26.47139
G1 X68.946 Y71.698 E26.54462
G1 F1500 E20.04462
G0 F5400 X69.738 Y70.947
G0 X71.982 Y70.903
G1 F1500 E26.54462
G1 F2700 X71.841 Y70.891 E26.54933
G1 X71.91 Y70.831 E26.55237
G1 X71.949 Y70.748 E26.55542
G1 X71.982 Y70.748 E26.55652
G1 X72.474 Y70.748 E26.57288
G1 X72.305 Y70.852 E26.57948
G1 X72.19 Y70.922 E26.58396
G1 X71.982 Y70.903 E26.59091
G1 X71.982 Y70.748 E26.59606
G0 F5400 X77.314 Y70.713
G1 F2700 X77.6 Y70.713 E26.60557
G1 X77.786 Y70.9 E26.61435
G1 X79.98 Y70.9 E26.68732
G1 X79.98 Y70.022 E26.71652
G1 X80.248 Y69.991 E26.7255
G1 X80.344 Y70.036 E26.72902
G1 X80.746 Y69.994 E26.74247
G1 X80.845 Y70.037 E26.74606
G1 X81.241 Y69.994 E26.7593
G1 X82.646 Y70.618 E26.81044
G1 X82.86 Y70.713 E26.81822
G1 X82.646 Y70.713 E26.82534
G1 X82.646 Y70.618 E26.8285
G0 F5400 X77.314 Y70.713
G1 F2700 X75.136 Y70.713 E26.90094
G1 X76.758 Y69.994 E26.95995
G1 X77.168 Y70.037 E26.97366
G1 X77.263 Y69.997 E26.97709
G1 X77.314 Y70.003 E26.9788
G1 X77.314 Y70.713 E27.00241
G0 F5400 X87.978 Y70.732
G1 F2700 X88.352 Y70.699 E27.0149
G1 X89.078 Y71.424 E27.04903
G1 X89.02 Y72.107 E27.07183
G1 X88.872 Y73.786 E27.12789
G1 X89.076 Y74.062 E27.1393
G1 X89.076 Y79.08 E27.3062
G1 X88.872 Y79.356 E27.31762
G1 X89.013 Y80.981 E27.37187
G1 X90.441 Y79.541 E27.43932
G1 X90.644 Y79.456 E27.44664
G1 X90.829 Y79.377 E27.45333
G1 X90.829 Y73.775 E27.63965
G1 X90.644 Y73.695 E27.64636
G1 X90.644 Y79.456 E27.83797
G1 F1500 E21.33797
G0 F5400 X88.83 Y71.515
G0 X87.978 Y70.732
G1 F1500 E27.83797
G1 F2700 X85.808 Y70.921 E27.91041
G1 X85.674 Y70.845 E27.91554
G1 X85.533 Y70.761 E27.921
G1 X87.039 Y70.769 E27.97109
G1 X87.169 Y70.768 E27.97541
G1 X87.574 Y70.384 E27.99397
G1 X87.606 Y69.77 E28.01442
G1 X87.773 Y69.694 E28.02053
G1 X87.978 Y69.663 E28.02742
G1 X87.978 Y70.732 E28.06298
G1 F1500 E21.56298
G0 F5400 X88.83 Y71.515
G0 X88.83 Y81.628
G0 X88.262 Y82.196
G0 X85.312 Y82.579
G1 F1500 E28.06298
G1 F2700 X86.17 Y82.58 E28.09151
G1 X86.308 Y82.266 E28.10292
G1 X85.626 Y82.206 E28.12569
G1 X85.563 Y82.244 E28.12814
G1 X85.312 Y82.244 E28.13649
G1 X85.312 Y82.579 E28.14763
G1 X82.646 Y82.578 E28.2363
G1 X82.646 Y82.244 E28.24741
G1 X79.98 Y82.244 E28.33608
G1 X79.98 Y82.577 E28.34716
G1 X77.314 Y82.576 E28.43583
G1 X77.314 Y82.244 E28.44687
G1 X74.648 Y82.244 E28.53554
G1 X74.648 Y82.575 E28.54655
G1 X71.982 Y82.574 E28.63522
G1 X71.982 Y82.239 E28.64637
G1 X71.715 Y82.263 E28.65528
G1 X71.835 Y82.574 E28.66637
G1 X71.982 Y82.574 E28.67126
G1 F1500 E22.17126
G0 F5400 X72.12 Y81.99
G0 X71.982 Y80.423
G0 X87.02 Y73.584
G0 X87.09 Y73.654
;TYPE:WALL-INNER
G1 F1500 E28.67126
G1 F3300 X87.09 Y79.489 E28.86533
G1 X87.378 Y79.488 E28.87491
G1 X87.498 Y80.865 E28.92088
G1 X86.121 Y80.744 E28.96686
G1 X86.122 Y80.443 E28.97687
G1 X71.878 Y80.443 E29.45063
G1 X71.879 Y80.744 E29.46064
G1 X70.502 Y80.865 E29.50662
G1 X70.622 Y79.488 E29.55259
G1 X70.91 Y79.489 E29.56217
G1 X70.91 Y73.654 E29.75624
G1 X70.622 Y73.655 E29.76582
G1 X70.502 Y72.278 E29.81179
G1 X71.879 Y72.399 E29.85777
G1 X71.878 Y72.7 E29.86778
G1 X86.122 Y72.7 E30.34154
G1 X86.121 Y72.399 E30.35155
G1 X87.498 Y72.278 E30.39752
G1 X87.378 Y73.655 E30.4435
G1 X87.09 Y73.654 E30.45308
G0 F5400 X87.49 Y74.056
;TYPE:WALL-OUTER
G1 F2100 X87.49 Y79.087 E30.62041
G1 X87.744 Y79.086 E30.62886
G1 X87.938 Y81.304 E30.70291
G1 X85.719 Y81.11 E30.77699
G1 X85.72 Y80.843 E30.78587
G1 X72.28 Y80.843 E31.23289
G1 X72.281 Y81.11 E31.24177
G1 X70.062 Y81.304 E31.31586
G1 X70.256 Y79.086 E31.38991
G1 X70.51 Y79.087 E31.39836
G1 X70.51 Y74.056 E31.56569
G1 X70.256 Y74.057 E31.57414
G1 X70.062 Y71.839 E31.64819
G1 X72.281 Y72.033 E31.72228
G1 X72.28 Y72.3 E31.73116
G1 X85.72 Y72.3 E32.17817
G1 X85.719 Y72.033 E32.18705
G1 X87.938 Y71.839 E32.26114
G1 X87.744 Y74.057 E32.33519
G1 X87.49 Y74.056 E32.34364
G0 F5400 X87.49 Y74.256
G0 X86.99 Y74.256
G0 X87.021 Y73.263
;TYPE:SKIN
G1 F1800 X86.7 Y73.262 E32.35432
G1 X86.7 Y79.881 E32.57446
G1 X87.021 Y79.88 E32.58514
G1 X87.069 Y80.436 E32.6037
G1 X86.513 Y80.387 E32.62227
G1 X86.514 Y80.053 E32.63338
G1 X71.486 Y80.053 E33.13321
G1 X71.487 Y80.387 E33.14432
G1 X70.931 Y80.436 E33.16288
G1 X70.979 Y79.88 E33.18144
G1 X71.3 Y79.881 E33.19212
G1 X71.3 Y73.262 E33.41227
G1 X70.979 Y73.263 E33.42295
G1 X70.931 Y72.707 E33.44151
G1 X71.487 Y72.756 E33.46007
G1 X71.486 Y73.09 E33.47118
G1 X86.514 Y73.09 E33.97101
G1 X86.513 Y72.756 E33.98212
G1 X87.069 Y72.707 E34.00069
G1 X87.021 Y73.263 E34.01925
G0 F5400 X86.816 Y80.06
G0 X86.754 Y80.121
G1 F1800 X86.478 Y79.832 E34.024
G1 X86.196 Y79.549 E34.04108
G1 X85.803 Y79.942
G0 F5400 X85.307 Y79.872
G1 F1800 X86.519 Y78.66 E34.09808
G1 X86.589 Y78.59
G0 F5400 X86.519 Y78.094
G1 F1800 X84.741 Y79.872 E34.18172
G1 X84.671 Y79.942
G0 F5400 X84.176 Y79.872
G1 F1800 X86.519 Y77.529 E34.29192
G1 X86.589 Y77.459
G0 F5400 X86.519 Y76.963
G1 F1800 X83.61 Y79.872 E34.42875
G1 X83.54 Y79.942
G0 F5400 X83.044 Y79.872
G1 F1800 X86.519 Y76.397 E34.59221
G1 X86.589 Y76.327
G0 F5400 X86.519 Y75.832
G1 F1800 X82.479 Y79.872 E34.78224
G1 X82.409 Y79.942
G0 F5400 X81.913 Y79.872
G1 F1800 X86.519 Y75.266 E34.99889
G1 X86.589 Y75.196
G0 F5400 X86.519 Y74.7
G1 F1800 X81.347 Y79.872 E35.24216
G1 X81.277 Y79.942
G0 F5400 X80.782 Y79.872
G1 F1800 X86.519 Y74.135 E35.51201
G1 X86.589 Y74.065
G0 F5400 X86.519 Y73.569
G1 F1800 X80.216 Y79.872 E35.80849
G1 X80.146 Y79.942
G0 F5400 X79.65 Y79.872
G1 F1800 X86.254 Y73.268 E36.11912
G1 X86.324 Y73.198
G0 F5400 X85.688 Y73.268
G1 F1800 X79.084 Y79.872 E36.42975
G1 X79.014 Y79.942
G0 F5400 X78.519 Y79.872
G1 F1800 X85.122 Y73.268 E36.74036
G1 X85.192 Y73.198
G0 F5400 X84.557 Y73.268
G1 F1800 X77.953 Y79.872 E37.05099
G1 X77.883 Y79.942
G0 F5400 X77.387 Y79.872
G1 F1800 X83.991 Y73.268 E37.36162
G1 X84.061 Y73.198
G0 F5400 X83.425 Y73.268
G1 F1800 X76.822 Y79.872 E37.67223
G1 X76.752 Y79.942
G0 F5400 X76.256 Y79.872
G1 F1800 X82.86 Y73.268 E37.98286
G1 X82.93 Y73.198
G0 F5400 X82.294 Y73.268
G1 F1800 X75.69 Y79.872 E38.2935
G1 X75.62 Y79.942
G0 F5400 X75.125 Y79.872
G1 F1800 X81.728 Y73.268 E38.6041
G1 X81.798 Y73.198
G0 F5400 X81.163 Y73.268
G1 F1800 X74.559 Y79.872 E38.91474
G1 X74.489 Y79.942
G0 F5400 X73.993 Y79.872
G1 F1800 X80.597 Y73.268 E39.22537
G1 X80.667 Y73.198
G0 F5400 X80.031 Y73.268
G1 F1800 X73.428 Y79.872 E39.53598
G1 X73.358 Y79.942
G0 F5400 X72.862 Y79.872
G1 F1800 X79.466 Y73.268 E39.84661
G1 X79.536 Y73.198
G0 F5400 X78.9 Y73.268
G1 F1800 X72.296 Y79.872 E40.15724
G1 X72.226 Y79.942
G0 F5400 X71.731 Y79.872
G1 F1800 X78.334 Y73.268 E40.46785
G1 X78.404 Y73.198
G0 F5400 X77.769 Y73.268
G1 F1800 X71.48 Y79.557 E40.76366
G1 X71.41 Y79.627
G0 F5400 X71.48 Y78.992
G1 F1800 X77.203 Y73.268 E41.03288
G1 X77.273 Y73.198
G0 F5400 X76.637 Y73.268
G1 F1800 X71.48 Y78.426 E41.27547
G1 X71.41 Y78.496
G0 F5400 X71.48 Y77.86
G1 F1800 X76.071 Y73.268 E41.49144
G1 X76.141 Y73.198
G0 F5400 X75.506 Y73.268
G1 F1800 X71.48 Y77.295 E41.68084
G1 X71.41 Y77.365
G0 F5400 X71.48 Y76.729
G1 F1800 X74.94 Y73.268 E41.84361
G1 X75.01 Y73.198
G0 F5400 X74.374 Y73.268
G1 F1800 X71.48 Y76.163 E41.97976
G1 X71.41 Y76.233
G0 F5400 X71.48 Y75.598
G1 F1800 X73.809 Y73.268 E42.08933
G1 X73.879 Y73.198
G0 F5400 X73.243 Y73.268
