;FLAVOR:Marlin
;TIME:9306
;Filament used: 6.78463m
;Layer height: 0.15
;Generated with Cura_SteamEngine master
M190 S60
M104 S210
M109 S210
M82 ;absolute extrusion mode
G21 ;metric values
G90 ;absolute positioning
M82 ;set extruder to absolute mode
M107 ;start with the fan off
G28 X0 Y0 ;move X/Y to min endstops
G28 Z0 ;move Z to min endstops
G92 E0 ;zero the extruded length
G1 F200 E3 ;extrude 3mm of feed stock
G92 E0 ;zero the extruded length again
G1 F9000
M117 PRINTING ...
G92 E0
G1 F1500 E-6.5
;LAYER_COUNT:33
;LAYER:0
M107
G0 F3600 X48.844 Y43.153 Z0.3
;TYPE:WALL-INNER
G1 F1500 E0
G1 F1800 X52.544 Y44.686 E0.19981
G1 X55.717 Y47.121 E0.39935
G1 X58.152 Y50.294 E0.5989
G1 X59.685 Y53.994 E0.79871
G1 X60.207 Y57.957 E0.99813
G1 X59.685 Y61.92 E1.19755
G1 X58.152 Y65.62 E1.39736
G1 X55.717 Y68.793 E1.59691
G1 X52.544 Y71.228 E1.79645
G1 X48.844 Y72.761 E1.99626
G1 X44.881 Y73.283 E2.19568
G1 X40.918 Y72.761 E2.39511
G1 X37.218 Y71.228 E2.59492
G1 X34.045 Y68.793 E2.79446
G1 X31.61 Y65.62 E2.994
G1 X30.077 Y61.92 E3.19381
G1 X29.555 Y57.957 E3.39324
G1 X30.077 Y53.994 E3.59266
G1 X31.61 Y50.294 E3.79247
G1 X34.045 Y47.121 E3.99201
G1 X37.218 Y44.686 E4.19155
G1 X40.918 Y43.153 E4.39137
G1 X44.881 Y42.631 E4.59079
G1 X48.844 Y43.153 E4.79021
G0 F3600 X48.949 Y42.763
;TYPE:WALL-OUTER
G1 F1800 X52.745 Y44.336 E4.99521
G1 X56.002 Y46.836 E5.20005
G1 X58.502 Y50.093 E5.40489
G1 X60.075 Y53.889 E5.60989
G1 X60.611 Y57.957 E5.8146
G1 X60.075 Y62.025 E6.01931
G1 X58.502 Y65.821 E6.22431
G1 X56.002 Y69.078 E6.42915
G1 X52.745 Y71.578 E6.63399
G1 X48.949 Y73.151 E6.83899
G1 X44.881 Y73.687 E7.0437
G1 X40.813 Y73.151 E7.24841
G1 X37.017 Y71.578 E7.4534
G1 X33.76 Y69.078 E7.65825
G1 X31.26 Y65.821 E7.86309
G1 X29.687 Y62.025 E8.06809
G1 X29.151 Y57.957 E8.2728
G1 X29.687 Y53.889 E8.4775
G1 X31.26 Y50.093 E8.6825
G1 X33.76 Y46.836 E8.88734
G1 X37.017 Y44.336 E9.09219
G1 X40.813 Y42.763 E9.29719
G1 X44.881 Y42.227 E9.50189
G1 X48.949 Y42.763 E9.7066
G0 F3600 X49.133 Y42.839
G0 X48.736 Y43.531
;TYPE:SKIN
G1 F1800 X52.347 Y45.028 E9.90162
G1 X55.438 Y47.4 E10.09601
G1 X57.81 Y50.491 E10.29039
G1 X59.307 Y54.102 E10.48541
G1 X59.815 Y57.957 E10.6794
G1 X59.307 Y61.812 E10.87339
G1 X57.81 Y65.423 E11.06841
G1 X55.438 Y68.514 E11.26279
G1 X52.347 Y70.886 E11.45718
G1 X48.736 Y72.383 E11.6522
G1 X44.881 Y72.891 E11.84619
G1 X41.026 Y72.383 E12.04018
G1 X37.415 Y70.886 E12.2352
G1 X34.324 Y68.514 E12.42958
G1 X31.952 Y65.423 E12.62397
G1 X30.455 Y61.812 E12.81899
G1 X29.947 Y57.957 E13.01298
G1 X30.455 Y54.102 E13.20697
G1 X31.952 Y50.491 E13.40199
G1 X34.324 Y47.4 E13.59637
G1 X37.415 Y45.028 E13.79076
G1 X41.026 Y43.531 E13.98578
G1 X44.881 Y43.023 E14.17977
G1 X48.736 Y43.531 E14.37376
G0 F3600 X56.713 Y49.359
G1 F1800 X53.477 Y46.123 E14.60207
G1 X53.407 Y46.053
G0 F3600 X51.775 Y44.986
G1 F1800 X57.85 Y51.062 E15.03073
G1 X57.92 Y51.132
G0 F3600 X58.251 Y52.028
G1 F1800 X50.809 Y44.586 E15.55581
G1 X50.739 Y44.516
G0 F3600 X49.842 Y44.185
G1 F1800 X58.651 Y52.994 E16.17733
G1 X58.721 Y53.064
G0 F3600 X59.052 Y53.961
G1 F1800 X48.876 Y43.785 E16.8953
G1 X48.806 Y43.715
G0 F3600 X48.163 Y43.637
G1 F1800 X59.2 Y54.674 E17.67402
G1 X59.27 Y54.744
G0 F3600 X59.286 Y55.326
G1 F1800 X47.511 Y43.551 E18.50481
G1 X47.441 Y43.481
G0 F3600 X46.859 Y43.465
G1 F1800 X59.372 Y55.978 E19.38767
G1 X59.442 Y56.048
G0 F3600 X59.458 Y56.63
G1 F1800 X46.208 Y43.379 E20.32257
G1 X46.138 Y43.309
G0 F3600 X45.556 Y43.294
G1 F1800 X59.544 Y57.281 E21.30946
G1 X59.614 Y57.351
G0 F3600 X59.63 Y57.933
G1 F1800 X44.904 Y43.207 E22.34846
G1 X44.834 Y43.137
G0 F3600 X44.399 Y43.267
G1 F1800 X59.57 Y58.438 E23.41885
G1 X59.64 Y58.508
G0 F3600 X59.504 Y58.938
G1 F1800 X43.899 Y43.333 E24.51987
G1 X43.829 Y43.263
G0 F3600 X43.399 Y43.399
G1 F1800 X59.437 Y59.437 E25.65144
G1 X59.507 Y59.507
G0 F3600 X59.372 Y59.937
G1 F1800 X42.899 Y43.465 E26.81366
G1 X42.829 Y43.395
G0 F3600 X42.399 Y43.53
G1 F1800 X59.306 Y60.437 E28.00654
G1 X59.376 Y60.507
G0 F3600 X59.24 Y60.937
G1 F1800 X41.899 Y43.596 E29.23004
G1 X41.829 Y43.526
G0 F3600 X41.399 Y43.662
G1 F1800 X59.174 Y61.437 E30.48417
G1 X59.244 Y61.507
G0 F3600 X59.073 Y61.902
G1 F1800 X40.935 Y43.763 E31.76393
G1 X40.865 Y43.693
G0 F3600 X40.535 Y43.929
G1 F1800 X58.907 Y62.301 E33.06018
G1 X58.977 Y62.371
G0 F3600 X58.742 Y62.701
G1 F1800 X40.135 Y44.095 E34.37297
G1 X40.065 Y44.025
G0 F3600 X39.735 Y44.261
G1 F1800 X58.576 Y63.102 E35.7023
G1 X58.646 Y63.172
G0 F3600 X58.41 Y63.501
G1 F1800 X39.335 Y44.426 E37.04815
G1 X39.265 Y44.356
G0 F3600 X38.936 Y44.592
G1 F1800 X58.245 Y63.901 E38.4105
G1 X58.315 Y63.971
G0 F3600 X58.078 Y64.301
G1 F1800 X38.536 Y44.759 E39.78929
G1 X38.466 Y44.689
G0 F3600 X38.136 Y44.924
G1 F1800 X57.913 Y64.701 E41.18467
G1 X57.983 Y64.771
G0 F3600 X57.747 Y65.101
G1 F1800 X37.736 Y45.09 E42.59655
G1 X37.666 Y45.02
G0 F3600 X37.37 Y45.29
G1 F1800 X57.547 Y65.467 E44.02015
G1 X57.617 Y65.537
G0 F3600 X57.301 Y65.787
G1 F1800 X37.05 Y45.536 E45.44897
G1 X36.98 Y45.466
G0 F3600 X36.73 Y45.781
G1 F1800 X57.056 Y66.107 E46.88308
G1 X57.126 Y66.177
G0 F3600 X56.811 Y66.427
G1 F1800 X36.41 Y46.026 E48.32248
G1 X36.34 Y45.956
G0 F3600 X36.09 Y46.273
G1 F1800 X56.565 Y66.747 E49.76706
G1 X56.635 Y66.817
G0 F3600 X56.319 Y67.067
G1 F1800 X35.77 Y46.518 E51.21691
G1 X35.7 Y46.448
G0 F3600 X35.45 Y46.763
G1 F1800 X56.074 Y67.387 E52.67204
G1 X56.144 Y67.457
G0 F3600 X55.828 Y67.707
G1 F1800 X35.13 Y47.009 E54.1324
G1 X35.06 Y46.939
G0 F3600 X34.81 Y47.255
G1 F1800 X55.582 Y68.027 E55.59797
G1 X55.652 Y68.097
G0 F3600 X55.336 Y68.347
G1 F1800 X34.49 Y47.501 E57.06877
G1 X34.42 Y47.431
G0 F3600 X34.235 Y47.811
G1 F1800 X55.024 Y68.601 E58.53558
G1 X55.094 Y68.671
G0 F3600 X54.704 Y68.846
G1 F1800 X33.989 Y48.132 E59.9971
G1 X33.919 Y48.062
G0 F3600 X33.743 Y48.451
G1 F1800 X54.384 Y69.092 E61.45344
G1 X54.454 Y69.162
G0 F3600 X54.064 Y69.338
G1 F1800 X33.498 Y48.771 E62.90451
G1 X33.428 Y48.701
G0 F3600 X33.253 Y49.092
G1 F1800 X53.744 Y69.583 E64.35026
G1 X53.814 Y69.653
G0 F3600 X53.424 Y69.829
G1 F1800 X33.007 Y49.411 E65.79083
G1 X32.937 Y49.341
G0 F3600 X32.761 Y49.732
G1 F1800 X53.104 Y70.074 E67.2261
G1 X53.174 Y70.144
G0 F3600 X52.784 Y70.32
G1 F1800 X32.516 Y50.052 E68.65612
G1 X32.446 Y49.982
G0 F3600 X32.27 Y50.372
G1 F1800 X52.464 Y70.566 E70.08092
G1 X52.534 Y70.636
G0 F3600 X52.116 Y70.784
G1 F1800 X32.052 Y50.72 E71.49654
G1 X31.982 Y50.65
G0 F3600 X31.886 Y51.119
G1 F1800 X51.716 Y70.949 E72.89565
G1 X51.786 Y71.019
G0 F3600 X51.316 Y71.115
G1 F1800 X31.72 Y51.519 E74.27826
G1 X31.65 Y51.449
G0 F3600 X31.554 Y51.919
G1 F1800 X50.916 Y71.281 E75.64435
G1 X50.986 Y71.351
G0 F3600 X50.517 Y71.447
G1 F1800 X31.389 Y52.319 E76.99393
G1 X31.319 Y52.249
G0 F3600 X31.223 Y52.719
G1 F1800 X50.116 Y71.612 E78.32694
G1 X50.186 Y71.682
G0 F3600 X49.717 Y71.779
G1 F1800 X31.057 Y53.119 E79.6435
G1 X30.987 Y53.049
G0 F3600 X30.891 Y53.518
G1 F1800 X49.317 Y71.944 E80.94355
G1 X49.387 Y72.014
G0 F3600 X48.917 Y72.11
G1 F1800 X30.725 Y53.919 E82.22706
G1 X30.655 Y53.849
G0 F3600 X30.601 Y54.36
G1 F1800 X48.475 Y72.234 E83.48817
G1 X48.545 Y72.304
G0 F3600 X47.975 Y72.3
G1 F1800 X30.535 Y54.86 E84.71866
G1 X30.465 Y54.79
G0 F3600 X30.469 Y55.36
G1 F1800 X47.475 Y72.366 E85.91852
G1 X47.545 Y72.436
G0 F3600 X46.976 Y72.432
G1 F1800 X30.404 Y55.86 E87.08777
G1 X30.334 Y55.79
G0 F3600 X30.337 Y56.359
G1 F1800 X46.476 Y72.498 E88.22646
G1 X46.546 Y72.568
G0 F3600 X45.977 Y72.564
G1 F1800 X30.271 Y56.859 E89.33457
G1 X30.201 Y56.789
G0 F3600 X30.206 Y57.359
G1 F1800 X45.477 Y72.63 E90.41202
G1 X45.547 Y72.7
G0 F3600 X44.977 Y72.696
G1 F1800 X30.14 Y57.859 E91.45885
G1 X30.07 Y57.789
G0 F3600 X30.196 Y58.481
G1 F1800 X44.355 Y72.639 E92.45781
G1 X44.425 Y72.709
G0 F3600 X43.704 Y72.554
G1 F1800 X30.282 Y59.132 E93.4048
G1 X30.212 Y59.062
G0 F3600 X30.368 Y59.784
G1 F1800 X43.052 Y72.467 E94.29969
G1 X43.122 Y72.537
G0 F3600 X42.4 Y72.381
G1 F1800 X30.455 Y60.436 E95.14248
G1 X30.385 Y60.366
G0 F3600 X30.541 Y61.088
G1 F1800 X41.748 Y72.295 E95.93319
G1 X41.818 Y72.365
G0 F3600 X41.096 Y72.209
G1 F1800 X30.627 Y61.74 E96.67183
G1 X30.557 Y61.67
G0 F3600 X31.017 Y62.695
G1 F1800 X40.14 Y71.818 E97.31551
G1 X40.21 Y71.888
G0 F3600 X39.174 Y71.418
G1 F1800 X31.417 Y63.661 E97.86281
G1 X31.347 Y63.591
G0 F3600 X31.818 Y64.628
G1 F1800 X38.208 Y71.018 E98.31366
G1 X38.278 Y71.088
G0 F3600 X36.842 Y70.217
G1 F1800 X32.618 Y65.993 E98.61169
G1 X32.548 Y65.923
G1 F1500 E92.11169
G0 F3600 X44.881 Y73.263
G0 X45.049 Y74.536
G0 X48.862 Y78.044
G0 X49.03 Y79.317
G0 X52.968 Y79.915
G0 X52.993 Y79.819
;TYPE:WALL-INNER
G1 F1500 E98.61169
G1 F1800 X56.693 Y81.352 E98.8115
G1 X59.866 Y83.787 E99.01104
G1 X62.301 Y86.96 E99.21058
G1 X63.834 Y90.66 E99.41039
G1 X64.356 Y94.623 E99.60982
G1 X63.834 Y98.586 E99.80924
G1 X62.301 Y102.286 E100.00905
G1 X59.866 Y105.459 E100.20859
G1 X56.693 Y107.894 E100.40813
G1 X52.993 Y109.427 E100.60795
G1 X49.03 Y109.949 E100.80737
G1 X45.067 Y109.427 E101.00679
G1 X41.367 Y107.894 E101.2066
G1 X38.194 Y105.459 E101.40614
G1 X35.759 Y102.286 E101.60569
G1 X34.226 Y98.586 E101.8055
G1 X33.704 Y94.623 E102.00492
G1 X34.226 Y90.66 E102.20434
G1 X35.759 Y86.96 E102.40415
G1 X38.194 Y83.787 E102.6037
G1 X41.367 Y81.352 E102.80324
G1 X45.067 Y79.819 E103.00305
G1 X49.03 Y79.297 E103.20247
G1 X52.993 Y79.819 E103.4019
G0 F3600 X53.098 Y79.429
;TYPE:WALL-OUTER
G1 F1800 X56.894 Y81.002 E103.6069
G1 X60.151 Y83.502 E103.81174
G1 X62.651 Y86.759 E104.01658
G1 X64.224 Y90.555 E104.22158
G1 X64.76 Y94.623 E104.42629
G1 X64.224 Y98.691 E104.63099
G1 X62.651 Y102.487 E104.83599
G1 X60.151 Y105.744 E105.04083
G1 X56.894 Y108.244 E105.24568
G1 X53.098 Y109.817 E105.45068
G1 X49.03 Y110.353 E105.65538
G1 X44.962 Y109.817 E105.86009
G1 X41.166 Y108.244 E106.06509
G1 X37.909 Y105.744 E106.26993
G1 X35.409 Y102.487 E106.47477
G1 X33.836 Y98.691 E106.67977
G1 X33.3 Y94.623 E106.88448
G1 X33.836 Y90.555 E107.08919
G1 X35.409 Y86.759 E107.29419
G1 X37.909 Y83.502 E107.49903
G1 X41.166 Y81.002 E107.70387
G1 X44.962 Y79.429 E107.90887
G1 X49.03 Y78.893 E108.11358
G1 X53.098 Y79.429 E108.31829
G0 F3600 X53.282 Y79.505
G0 X52.885 Y80.197
;TYPE:SKIN
G1 F1800 X56.496 Y81.694 E108.51331
G1 X59.587 Y84.066 E108.70769
G1 X61.959 Y87.157 E108.90207
G1 X63.456 Y90.768 E109.0971
G1 X63.964 Y94.623 E109.29109
G1 X63.456 Y98.478 E109.48507
G1 X61.959 Y102.089 E109.6801
G1 X59.587 Y105.18 E109.87448
G1 X56.496 Y107.552 E110.06886
G1 X52.885 Y109.049 E110.26388
G1 X49.03 Y109.557 E110.45787
G1 X45.175 Y109.049 E110.65186
G1 X41.564 Y107.552 E110.84688
G1 X38.473 Y105.18 E111.04127
G1 X36.101 Y102.089 E111.23565
G1 X34.604 Y98.478 E111.43067
G1 X34.096 Y94.623 E111.62466
G1 X34.604 Y90.768 E111.81865
G1 X36.101 Y87.157 E112.01367
G1 X38.473 Y84.066 E112.20806
G1 X41.564 Y81.694 E112.40244
G1 X45.175 Y80.197 E112.59746
G1 X49.03 Y79.689 E112.79145
G1 X52.885 Y80.197 E112.98544
G0 F3600 X59.967 Y84.857
G1 F1800 X58.795 Y83.686 E113.0681
G1 X58.725 Y83.616
G0 F3600 X56.388 Y81.844
G1 F1800 X61.808 Y87.264 E113.45051
G1 X61.878 Y87.334
G0 F3600 X62.209 Y88.23
G1 F1800 X55.422 Y81.443 E113.92937
G1 X55.352 Y81.373
G0 F3600 X54.456 Y81.043
G1 F1800 X62.609 Y89.196 E114.50461
G1 X62.679 Y89.266
G0 F3600 X63.01 Y90.163
G1 F1800 X53.489 Y80.642 E115.17636
G1 X53.419 Y80.572
G0 F3600 X52.625 Y80.343
G1 F1800 X63.309 Y91.027 E115.93018
G1 X63.379 Y91.097
G0 F3600 X63.394 Y91.679
G1 F1800 X51.973 Y80.258 E116.73599
G1 X51.903 Y80.188
G0 F3600 X51.322 Y80.172
G1 F1800 X63.48 Y92.33 E117.5938
G1 X63.55 Y92.4
G0 F3600 X63.566 Y92.982
G1 F1800 X50.67 Y80.086 E118.50369
G1 X50.6 Y80.016
G0 F3600 X50.019 Y80
G1 F1800 X63.652 Y93.633 E119.46557
G1 X63.722 Y93.703
G0 F3600 X63.738 Y94.285
G1 F1800 X49.367 Y79.914 E120.47952
G1 X49.297 Y79.844
G0 F3600 X48.788 Y79.901
G1 F1800 X63.751 Y94.864 E121.53524
G1 X63.821 Y94.934
G0 F3600 X63.684 Y95.363
G1 F1800 X48.289 Y79.968 E122.62144
G1 X48.219 Y79.898
G0 F3600 X47.789 Y80.033
G1 F1800 X63.619 Y95.863 E123.73833
G1 X63.689 Y95.933
G0 F3600 X63.553 Y96.363
G1 F1800 X47.289 Y80.099 E124.88585
G1 X47.219 Y80.029
G0 F3600 X46.789 Y80.165
G1 F1800 X63.487 Y96.863 E126.06398
G1 X63.557 Y96.933
G0 F3600 X63.421 Y97.362
G1 F1800 X46.29 Y80.231 E127.27266
G1 X46.22 Y80.161
G0 F3600 X45.79 Y80.296
G1 F1800 X63.356 Y97.862 E128.51204
G1 X63.426 Y97.932
G0 F3600 X63.29 Y98.362
G1 F1800 X45.29 Y80.362 E129.78204
G1 X45.22 Y80.292
G0 F3600 X44.877 Y80.515
G1 F1800 X63.137 Y98.775 E131.07038
G1 X63.207 Y98.845
G0 F3600 X62.971 Y99.175
G1 F1800 X44.477 Y80.681 E132.37523
G1 X44.407 Y80.611
G0 F3600 X44.077 Y80.847
G1 F1800 X62.805 Y99.575 E133.69659
G1 X62.875 Y99.645
G0 F3600 X62.639 Y99.974
G1 F1800 X43.677 Y81.013 E135.03443
G1 X43.607 Y80.943
G0 F3600 X43.277 Y81.178
G1 F1800 X62.474 Y100.375 E136.38888
G1 X62.544 Y100.445
G0 F3600 X62.308 Y100.774
G1 F1800 X42.878 Y81.344 E137.75977
G1 X42.808 Y81.274
G0 F3600 X42.478 Y81.51
G1 F1800 X62.142 Y101.174 E139.14717
G1 X62.212 Y101.244
G0 F3600 X61.976 Y101.574
G1 F1800 X42.078 Y81.676 E140.55108
G1 X42.008 Y81.606
G0 F3600 X41.678 Y81.841
G1 F1800 X61.811 Y101.974 E141.97158
G1 X61.881 Y102.044
G0 F3600 X61.569 Y102.299
G1 F1800 X41.353 Y82.083 E143.39792
G1 X41.283 Y82.013
G0 F3600 X41.033 Y82.328
G1 F1800 X61.324 Y102.619 E144.82956
G1 X61.394 Y102.689
G0 F3600 X61.078 Y102.939
G1 F1800 X40.713 Y82.574 E146.26642
G1 X40.643 Y82.504
G0 F3600 X40.393 Y82.819
G1 F1800 X60.833 Y103.259 E147.70858
G1 X60.903 Y103.329
G0 F3600 X60.587 Y103.579
G1 F1800 X40.073 Y83.065 E149.15595
G1 X40.003 Y82.995
G0 F3600 X39.753 Y83.311
G1 F1800 X60.341 Y103.899 E150.60855
G1 X60.411 Y103.969
G0 F3600 X60.096 Y104.219
G1 F1800 X39.433 Y83.556 E152.06643
G1 X39.363 Y83.486
G0 F3600 X39.113 Y83.802
G1 F1800 X59.85 Y104.539 E153.52954
G1 X59.92 Y104.609
G0 F3600 X59.604 Y104.859
G1 F1800 X38.793 Y84.048 E154.99787
G1 X38.723 Y83.978
G0 F3600 X38.502 Y84.323
G1 F1800 X59.328 Y105.148 E156.46722
G1 X59.398 Y105.218
G0 F3600 X59.008 Y105.394
G1 F1800 X38.256 Y84.642 E157.93138
G1 X38.186 Y84.572
G0 F3600 X38.011 Y84.963
G1 F1800 X58.688 Y105.64 E159.39026
G1 X58.758 Y105.71
G0 F3600 X58.368 Y105.885
G1 F1800 X37.765 Y85.283 E160.84388
G1 X37.695 Y85.213
G0 F3600 X37.519 Y85.603
G1 F1800 X58.048 Y106.131 E162.29227
G1 X58.118 Y106.201
G0 F3600 X57.728 Y106.377
G1 F1800 X37.274 Y85.923 E163.73541
G1 X37.204 Y85.853
G0 F3600 X37.028 Y86.242
G1 F1800 X57.408 Y106.623 E165.17337
G1 X57.478 Y106.693
G0 F3600 X57.088 Y106.868
G1 F1800 X36.782 Y86.563 E166.60603
G1 X36.712 Y86.493
G0 F3600 X36.537 Y86.883
G1 F1800 X56.767 Y107.113 E168.03337
G1 X56.837 Y107.183
G0 F3600 X56.448 Y107.36
G1 F1800 X36.291 Y87.203 E169.45555
G1 X36.221 Y87.133
G0 F3600 X36.115 Y87.592
G1 F1800 X56.058 Y107.536 E170.86267
G1 X56.128 Y107.606
G0 F3600 X55.659 Y107.702
G1 F1800 X35.949 Y87.992 E172.25332
G1 X35.879 Y87.922
G0 F3600 X35.783 Y88.392
G1 F1800 X55.258 Y107.867 E173.62739
G1 X55.328 Y107.937
G0 F3600 X54.859 Y108.033
G1 F1800 X35.617 Y88.792 E174.98498
G1 X35.547 Y88.722
G0 F3600 X35.452 Y89.192
G1 F1800 X54.459 Y108.199 E176.32602
G1 X54.529 Y108.269
G0 F3600 X54.059 Y108.365
G1 F1800 X35.286 Y89.591 E177.6506
G1 X35.216 Y89.521
G0 F3600 X35.12 Y89.992
G1 F1800 X53.659 Y108.53 E178.95859
G1 X53.729 Y108.6
G0 F3600 X53.259 Y108.696
G1 F1800 X34.955 Y90.392 E180.25003
G1 X34.885 Y90.322
G0 F3600 X34.788 Y90.791
G1 F1800 X52.859 Y108.862 E181.52504
G1 X52.929 Y108.932
G0 F3600 X52.366 Y108.934
G1 F1800 X34.716 Y91.285 E182.77031
G1 X34.646 Y91.215
G0 F3600 X34.651 Y91.785
G1 F1800 X51.866 Y109 E183.98492
G1 X51.936 Y109.07
G0 F3600 X51.366 Y109.066
G1 F1800 X34.585 Y92.285 E185.16891
G1 X34.515 Y92.215
G0 F3600 X34.518 Y92.784
G1 F1800 X50.867 Y109.132 E186.32238
G1 X50.937 Y109.202
G0 F3600 X50.367 Y109.198
G1 F1800 X34.453 Y93.284 E187.4452
G1 X34.383 Y93.214
G0 F3600 X34.387 Y93.784
G1 F1800 X49.867 Y109.264 E188.5374
G1 X49.937 Y109.334
G0 F3600 X49.367 Y109.33
G1 F1800 X34.321 Y94.284 E189.59898
G1 X34.251 Y94.214
G0 F3600 X34.304 Y94.832
G1 F1800 X48.818 Y109.346 E190.62302
