;FLAVOR:Marlin
;TIME:2827
;Filament used: 2.28931m
;Layer height: 0.2
;Generated with Cura_SteamEngine master
M190 S60
M104 S210
M109 S210
M82 ;absolute extrusion mode
G21 ;metric values
G90 ;absolute positioning
M82 ;set extruder to absolute mode
M107 ;start with the fan off
G28 X0 Y0 ;move X/Y to min endstops
G28 Z0 ;move Z to min endstops
G92 E0 ;zero the extruded length
G1 F200 E3 ;extrude 3mm of feed stock
G92 E0 ;zero the extruded length again
G1 F9000
M117 PRINTING ...
G92 E0
G1 F1500 E-6.5
;LAYER_COUNT:12
;LAYER:0
M107
G0 F3600 X36.519 Y62.951 Z0.3
;TYPE:SUPPORT
G1 F1500 E0
G1 F1800 X37.481 Y62.951 E0.04799
G1 X37.527 Y66.596 E0.22986
G1 X37.623 Y69.323 E0.36599
G1 X36.377 Y69.323 E0.42816
G1 X36.473 Y66.598 E0.56419
G1 X36.519 Y62.951 E0.74616
G0 F3600 X37.324 Y63.267
G1 F1800 X37.324 Y69.163 E1.04031
G0 F3600 X37.368 Y66.65
G1 F1800 X36.631 Y66.65 E1.07708
G0 F3600 X36.666 Y63.984
G1 F1800 X37.333 Y63.984 E1.11035
G1 F1500 E-5.38965
G0 F3600 X37.763 Y63.977
G0 X37.807 Y63.977
G0 X40.404 Y63.943
G0 X40.349 Y54.403
G0 X40.68 Y62.638
G0 X40.87 Y63.936
G0 X43.471 Y63.902
G0 X43.429 Y62.465
G0 X43.981 Y59.731
G0 X44.417 Y63.889
G0 X47.018 Y63.855
G0 X46.728 Y59.531
G0 X47.478 Y54.403
G0 X47.545 Y63.848
G0 X53.201 Y63.773
G0 X53.281 Y63.772
G0 X62.717 Y63.647
G0 X62.797 Y63.646
G0 X68.453 Y63.571
G0 X68.522 Y54.889
G0 X69.272 Y60.017
G0 X69.045 Y63.563
G0 X71.654 Y63.528
G0 X71.681 Y63.99
G0 X72.494 Y63.988
G0 X72.602 Y63.516
G0 X75.21 Y63.481
G0 X75.319 Y63.129
G0 X75.651 Y54.889
G0 X75.608 Y63.476
G0 X78.203 Y63.441
G0 X78.247 Y63.441
G0 X78.519 Y63.438
G1 F1500 E1.11035
G1 F1800 X79.481 Y63.438 E1.15835
G1 X79.527 Y67.083 E1.34021
G1 X79.623 Y69.81 E1.47635
G1 X78.377 Y69.81 E1.53851
G1 X78.473 Y67.085 E1.67455
G1 X78.519 Y63.438 E1.85651
G0 F3600 X78.674 Y63.984
G1 F1800 X79.327 Y63.984 E1.88909
G0 F3600 X79.362 Y66.65
G1 F1800 X78.639 Y66.65 E1.92516
G0 F3600 X78.555 Y69.316
G1 F1800 X79.446 Y69.316 E1.96961
G1 F1500 E-4.53039
G0 F3600 X79.876 Y69.31
G0 X79.92 Y69.31
G0 X82.515 Y69.283
G0 X82.516 Y67.006
G0 X82.68 Y63.124
G0 X83.285 Y69.276
G0 X85.885 Y69.249
G0 X85.43 Y62.961
G0 X86.908 Y69.059
G0 X87.022 Y69.237
G0 X95.197 Y69.152
G0 X95.277 Y69.151
G0 X104.721 Y69.053
G0 X104.801 Y69.053
G0 X112.854 Y68.969
G0 X113.091 Y68.146
G0 X114.062 Y68.136
G0 X114.057 Y68.957
G0 X116.665 Y68.93
G0 X116.802 Y68.138
G0 X117.424 Y68.136
G0 X117.463 Y68.921
G0 X120.062 Y68.895
G0 X120.106 Y68.895
G0 X120.377 Y68.892
G1 F1500 E1.96961
G1 F1800 X120.473 Y66.167 E2.10565
G1 X120.519 Y62.52 E2.28761
G1 X121.481 Y62.52 E2.3356
G1 X121.527 Y66.165 E2.51747
G1 X121.623 Y68.892 E2.6536
G1 X120.377 Y68.892 E2.71577
G0 F3600 X120.617 Y66.65
G1 F1800 X121.384 Y66.65 E2.75403
G0 F3600 X121.339 Y63.984
G1 F1800 X120.662 Y63.984 E2.78781
G1 F1500 E-3.71219
G0 F3600 X120.251 Y62.421
G0 X120.235 Y62.359
G0 X117.339 Y51.306
G0 X117.318 Y51.228
G0 X116.152 Y46.778
G0 X116.132 Y46.7
G0 X114.648 Y41.038
G0 X107.5 Y40.998
G0 X110.524 Y40.644
G0 X114.436 Y40.229
G0 X113.768 Y37.678
G0 X115.232 Y37.475
G0 X120.562 Y36.609
G0 X113.539 Y36.806
G0 X112.864 Y34.23
G0 X120.561 Y33.877
G0 X120.561 Y33.844
G0 X112.771 Y33.876
G0 X112.092 Y31.286
G0 X112.081 Y31.242
G0 X112.012 Y30.975
G1 F1500 E2.78781
G1 F1800 X108.367 Y31.021 E2.96967
G1 X105.64 Y31.117 E3.10581
G1 X105.64 Y29.871 E3.16797
G1 X108.365 Y29.967 E3.30401
G1 X112.012 Y30.013 E3.48597
G1 X112.012 Y30.975 E3.53396
G0 F3600 X109.306 Y30.849
G1 F1800 X109.306 Y30.14 E3.56934
G0 F3600 X106.64 Y30.067
G1 F1800 X106.64 Y30.922 E3.61199
G1 F1500 E-2.88801
G0 F3600 X106.684 Y29.672
G0 X106.728 Y28.39
G0 X107.675 Y28.244
G0 X107.806 Y25.091
G0 X107.873 Y25.164
;TYPE:WALL-INNER
G1 F1500 E3.61199
G1 F1800 X107.873 Y28.216 E3.76426
G1 X107.873 Y28.237 E3.76531
G1 X108.409 Y28.243 E3.79205
G1 X109.983 Y28.262 E3.87058
G1 X109.983 Y25.364 E4.01516
G1 X109.983 Y25.345 E4.01611
G1 X109.965 Y25.344 E4.01701
G1 X107.873 Y25.164 E4.12177
G0 F3600 X107.806 Y25.091
G0 X110.141 Y25.291
G0 X110.208 Y25.364
G1 F1800 X110.208 Y28.266 E4.20325
G1 X121.814 Y28.414 E4.78232
G1 X121.814 Y25.904 E4.90755
G1 X112.404 Y25.551 E5.37734
G1 X110.208 Y25.364 E5.4873
G0 F3600 X110.141 Y25.291
G0 X110.141 Y21.739
G0 X110.208 Y21.812
G1 F1800 X110.208 Y25.12 E5.65234
G1 X110.208 Y25.139 E5.65328
G1 X110.226 Y25.14 E5.65399
G1 X112.419 Y25.328 E5.71538
G1 X121.814 Y25.679 E5.97787
G1 X121.814 Y22.608 E6.13108
G1 X121.803 Y22.608 E6.13163
G1 X115.325 Y22.252 E6.4553
G1 X110.208 Y21.812 E6.71153
G0 F3600 X109.983 Y21.549
G1 F1800 X109.983 Y18.763 E6.85053
G1 X107.873 Y18.763 E6.9558
G1 X107.873 Y21.245 E7.07962
G1 X107.873 Y21.275 E7.08112
G1 X107.901 Y21.278 E7.08253
G1 X109.983 Y21.549 E7.18727
G0 F3600 X110.048 Y21.624
G0 X107.808 Y21.428
G0 X107.873 Y21.503
G1 F1800 X107.873 Y24.92 E7.35775
G1 X107.873 Y24.939 E7.3587
G1 X107.891 Y24.94 E7.3594
G1 X109.983 Y25.12 E7.41806
G1 X109.983 Y21.812 E7.51089
G1 X109.983 Y21.777 E7.51264
G1 X109.955 Y21.774 E7.51374
G1 X107.873 Y21.503 E7.57295
G0 F3600 X107.648 Y21.245
G1 F1800 X107.648 Y18.763 E7.6426
G1 X101.166 Y18.763 E7.96599
G1 X101.148 Y18.865 E7.97115
G1 X101.009 Y19.654 E8.01112
G1 X100.992 Y19.756 E8.01628
G1 X101.681 Y20.005 E8.05283
G1 X103.8 Y20.578 E8.16235
G1 X106.627 Y21.115 E8.30591
G1 X107.648 Y21.245 E8.35726
G0 F3600 X107.714 Y21.32
G0 X107.803 Y16.782
G0 X107.873 Y16.852
G1 F1800 X107.873 Y18.538 E8.44137
G1 X109.983 Y18.538 E8.50059
G1 X109.983 Y16.852 E8.5847
G1 X107.873 Y16.852 E8.68997
G0 F3600 X107.803 Y16.782
G0 X107.676 Y18.566
G0 X99.353 Y18.708
G0 X99.27 Y18.763
G1 F1800 X98.968 Y18.763 E8.70504
G1 X85.447 Y18.763 E9.3796
G1 X85.247 Y19.717 E9.42823
G1 X86.026 Y20.058 E9.47066
G1 X89.534 Y21.412 E9.65826
G1 X93.631 Y22.667 E9.87203
G1 X98.614 Y23.771 E10.12666
G1 X104.778 Y24.675 E10.43747
G1 X107.648 Y24.92 E10.58118
G1 X107.648 Y21.503 E10.67707
G1 X107.648 Y21.473 E10.67857
G1 X107.62 Y21.47 E10.67967
G1 X106.597 Y21.338 E10.7087
G1 X106.583 Y21.336 E10.70925
G1 X103.751 Y20.798 E10.79046
G1 X101.613 Y20.22 E10.85282
G1 X100.915 Y19.968 E10.87376
G1 X100.818 Y19.933 E10.87804
G1 X99.947 Y19.617 E10.92426
G1 X99.068 Y19.238 E10.97202
G1 X99.152 Y19.041 E10.98271
G1 X99.27 Y18.763 E10.9915
G0 F3600 X99.353 Y18.708
G0 X107.676 Y18.566
G0 X107.676 Y16.824
G0 X99.032 Y16.684
G0 X98.951 Y16.627
G1 F1800 X98.606 Y15.681 E11.04174
G1 X98.563 Y15.563 E11.048
G1 X97.822 Y13.534 E11.15577
G1 X95.821 Y13.532 E11.2556
G1 X95.492 Y14.206 E11.29302
G1 X95.793 Y14.591 E11.3174
G1 X96.22 Y15.085 E11.34997
G1 X96.687 Y15.578 E11.38385
G1 X96.846 Y15.731 E11.39486
G1 X96.932 Y15.813 E11.40079
G1 X97.202 Y16.072 E11.41946
G1 X97.662 Y16.474 E11.44993
G1 X97.837 Y16.627 E11.46153
G1 X98.951 Y16.627 E11.51711
G0 F3600 X99.032 Y16.684
G0 X97.823 Y16.664
G0 X95.641 Y14.699
G0 X94.737 Y13.495
G0 X89.433 Y13.444
G0 X89.375 Y13.524
G1 F1800 X82.658 Y13.523 E11.85222
G1 X82.397 Y14.088 E11.88327
G1 X82.337 Y14.219 E11.89046
G1 X82.76 Y14.718 E11.9231
G1 X83.229 Y15.221 E11.95741
G1 X83.739 Y15.714 E11.9928
G1 X83.748 Y15.723 E11.99343
G1 X83.84 Y15.804 E11.99955
G1 X84.318 Y16.225 E12.03132
G1 X84.628 Y16.472 E12.0511
G1 X84.823 Y16.627 E12.06353
G1 X86.159 Y16.627 E12.13018
G1 X86.435 Y16.465 E12.14615
G1 X87.134 Y16.054 E12.1866
G1 X87.787 Y15.643 E12.2251
G1 X87.881 Y15.584 E12.23063
G1 X88.011 Y15.502 E12.2383
G1 X88.788 Y14.978 E12.28506
G1 X89.476 Y14.475 E12.32758
G1 X89.645 Y14.352 E12.338
G1 X89.604 Y14.226 E12.34462
G1 X89.412 Y13.638 E12.37548
G1 X89.375 Y13.524 E12.38145
G0 F3600 X89.433 Y13.444
G0 X89.683 Y14.364
G0 X87.967 Y15.765
G0 X88.205 Y16.707
G0 X88.264 Y16.627
G1 F1800 X96.371 Y16.627 E12.78591
G1 X96.423 Y16.505 E12.79253
G1 X96.637 Y16.01 E12.81944
G1 X96.684 Y15.901 E12.82435
G1 X96.525 Y15.733 E12.83107
G1 X96.056 Y15.239 E12.85012
G1 X95.623 Y14.738 E12.86882
G1 X95.611 Y14.724 E12.86954
G1 X95.314 Y14.346 E12.88296
G1 X95.228 Y14.237 E12.88989
G1 X94.719 Y13.53 E12.93335
G1 X90.936 Y13.526 E13.12209
G1 X90.767 Y13.677 E13.13339
G1 X90.206 Y14.179 E13.17095
G1 X89.883 Y14.437 E13.19158
G1 X89.78 Y14.52 E13.19692
G1 X89.61 Y14.656 E13.20298
G1 X88.927 Y15.155 E13.22673
G1 X88.914 Y15.163 E13.22749
G1 X88.137 Y15.688 E13.25364
G1 X88.004 Y15.778 E13.25824
G1 X88.036 Y15.884 E13.26282
G1 X88.23 Y16.515 E13.29576
G1 X88.264 Y16.627 E13.3016
G0 F3600 X88.205 Y16.707
G0 X107.676 Y16.824
G0 X107.676 Y18.566
G0 X83.493 Y18.709
G0 X83.41 Y18.763
G1 F1800 X83.266 Y18.763 E13.30878
G1 X73.616 Y18.763 E13.79022
G1 X73.616 Y24.315 E14.06721
G1 X73.675 Y24.331 E14.07026
G1 X76.859 Y25.217 E14.23515
G1 X80.302 Y26.009 E14.41141
G1 X84.701 Y26.739 E14.63387
G1 X90.533 Y27.377 E14.92657
G1 X98.275 Y27.889 E15.31366
G1 X107.648 Y28.216 E15.78157
G1 X107.648 Y25.164 E15.86722
G1 X107.648 Y25.145 E15.86817
G1 X107.63 Y25.144 E15.86887
G1 X104.754 Y24.898 E15.94958
G1 X98.582 Y23.994 E16.1244
G1 X98.57 Y23.992 E16.12487
G1 X93.576 Y22.884 E16.26791
G1 X89.469 Y21.629 E16.38838
G1 X89.458 Y21.625 E16.38896
G1 X85.944 Y20.267 E16.49476
G1 X85.157 Y19.924 E16.51897
G1 X83.266 Y19.097 E16.62194
G1 X83.41 Y18.763 E16.63367
G0 F3600 X83.493 Y18.709
G0 X107.676 Y18.566
G0 X107.676 Y16.824
G0 X75.515 Y16.69
G0 X75.591 Y16.627
G1 F1800 X83.28 Y16.627 E17.01728
G1 X83.537 Y15.991 E17.0515
G1 X83.583 Y15.877 E17.05653
G1 X83.072 Y15.382 E17.07647
G1 X82.596 Y14.872 E17.09618
G1 X82.587 Y14.862 E17.09671
G1 X82.166 Y14.363 E17.11494
G1 X82.15 Y14.344 E17.1159
G1 X82.062 Y14.229 E17.12176
G1 X81.76 Y13.838 E17.14641
G1 X81.634 Y13.659 E17.15733
G1 X81.539 Y13.523 E17.16561
G1 X76.698 Y13.522 E17.40713
G1 X76.601 Y13.685 E17.41659
G1 X76.402 Y14.016 E17.43586
G1 X76.199 Y14.422 E17.45851
G1 X76.02 Y14.856 E17.48193
G1 X75.867 Y15.32 E17.5063
G1 X75.744 Y15.812 E17.5316
G1 X75.659 Y16.266 E17.55465
G1 X75.591 Y16.627 E17.57298
G0 F3600 X75.342 Y16.207
G1 F1800 X75.497 Y15.732 E17.59135
G1 X75.654 Y15.251 E17.60654
G1 X75.803 Y14.794 E17.61996
G1 X75.812 Y14.771 E17.62093
G1 X75.99 Y14.338 E17.63406
G1 X76.163 Y13.918 E17.64795
G1 X76.327 Y13.522 E17.66365
G1 X73.782 Y13.522 E17.79062
G1 X73.52 Y14.185 E17.82619
G1 X73.482 Y14.281 E17.83134
G1 X73.713 Y14.498 E17.84715
G1 X74.26 Y15.012 E17.8846
G1 X74.276 Y15.027 E17.88569
G1 X74.941 Y15.763 E17.93518
G1 X75.342 Y16.207 E17.96503
G0 F3600 X75.362 Y16.304
G0 X74.568 Y16.624
G0 X71.66 Y16.782
G0 X71.73 Y16.852
G1 F1800 X71.73 Y16.896 E17.96722
G1 X71.73 Y19.919 E18.11804
G1 X71.73 Y20.145 E18.12932
G1 X71.73 Y24.495 E18.34634
G1 X71.73 Y24.586 E18.35088
G1 X71.73 Y25.314 E18.3872
G1 X71.73 Y25.463 E18.39463
G1 X71.73 Y35.525 E18.89663
G1 X71.73 Y35.674 E18.90406
G1 X71.73 Y36.403 E18.94043
G1 X71.73 Y36.494 E18.94497
G1 X71.73 Y40.843 E19.16194
G1 X71.73 Y41.07 E19.17327
G1 X71.73 Y44.09 E19.32394
G1 X71.73 Y44.136 E19.32623
G1 X74.458 Y44.136 E19.46233
G1 X75.591 Y44.136 E19.51886
G1 X77.003 Y44.136 E19.5893
G1 X77.003 Y42.45 E19.67342
G1 X73.616 Y42.45 E19.8424
G1 X73.391 Y42.45 E19.85362
G1 X73.391 Y42.225 E19.86304
G1 X73.391 Y36.673 E20.14004
G1 X73.391 Y36.439 E20.15171
G1 X73.391 Y24.549 E20.7449
G1 X73.391 Y24.315 E20.75475
G1 X73.391 Y18.763 E20.91055
G1 X73.391 Y18.538 E20.91998
G1 X73.616 Y18.538 E20.9294
G1 X83.41 Y18.538 E21.23129
G1 X85.447 Y18.538 E21.33291
G1 X98.968 Y18.538 E21.85992
G1 X99.27 Y18.538 E21.87169
G1 X101.062 Y18.538 E21.96109
G1 X101.166 Y18.538 E21.96541
G1 X107.648 Y18.538 E22.14732
G1 X107.648 Y16.852 E22.19463
G1 X98.951 Y16.852 E22.62853
G1 X97.837 Y16.852 E22.65979
G1 X97.604 Y16.852 E22.66904
G1 X96.504 Y16.852 E22.72392
G1 X96.371 Y16.852 E22.72935
G1 X88.264 Y16.852 E22.95686
G1 X88.146 Y16.852 E22.96172
G1 X86.48 Y16.852 E23.04484
G1 X86.159 Y16.852 E23.05748
G1 X84.823 Y16.852 E23.09497
G1 X84.573 Y16.852 E23.10487
G1 X83.28 Y16.852 E23.16938
G1 X75.591 Y16.852 E23.38516
G1 X74.458 Y16.852 E23.44169
G1 X71.73 Y16.852 E23.57779
G0 F3600 X71.505 Y16.661
G1 F1800 X71.505 Y16.627 E23.57948
G1 X71.73 Y16.627 E23.5889
G1 X74.458 Y16.627 E23.66546
G1 X74.775 Y15.914 E23.70439
G1 X74.107 Y15.175 E23.73227
G1 X73.56 Y14.663 E23.75319
G1 X73.327 Y14.474 E23.76185
G1 X73.247 Y14.409 E23.7662
G1 X72.971 Y14.184 E23.78397
G1 X72.343 Y13.734 E23.82251
G1 X72.261 Y13.682 E23.82736
G1 X72.007 Y13.521 E23.84236
G1 X64.983 Y13.52 E24.19279
G1 X64.933 Y13.64 E24.19928
G1 X64.674 Y14.255 E24.23257
G1 X65.178 Y14.768 E24.26845
G1 X65.713 Y15.261 E24.30474
G1 X65.774 Y15.317 E24.30887
G1 X66.083 Y15.602 E24.32985
G1 X67.025 Y16.306 E24.38852
G1 X68.024 Y16.821 E24.44459
G1 X69.103 Y17.086 E24.50002
G1 X70.286 Y17.043 E24.55908
G1 X71.438 Y16.682 E24.61931
G1 X71.505 Y16.661 E24.62281
G0 F3600 X71.585 Y16.72
G0 X71.57 Y20.07
G0 X71.505 Y20.145
G1 F1800 X68.889 Y20.512 E24.7546
G1 X66.128 Y21.018 E24.89465
G1 X65.095 Y21.296 E24.94802
G1 X64.857 Y21.361 E24.96032
G1 X63.391 Y21.757 E25.03608
G1 X62.613 Y22.073 E25.07798
G1 X62.607 Y22.872 E25.11784
G1 X62.686 Y22.906 E25.12213
G1 X63.875 Y23.415 E25.18666
G1 X65.136 Y23.863 E25.25342
G1 X66.505 Y24.225 E25.32407
G1 X68.02 Y24.468 E25.40062
G1 X69.311 Y24.542 E25.46513
G1 X69.425 Y24.548 E25.47083
G1 X69.719 Y24.566 E25.48552
G1 X71.415 Y24.498 E25.57021
G1 X71.505 Y24.495 E25.57399
G1 X71.505 Y20.145 E25.69606
G0 F3600 X71.57 Y20.07
G0 X71.533 Y24.522
G0 X70.89 Y25.019
G0 X70.891 Y25.118
G1 F1800 X70.185 Y25.551 E25.73738
G1 X69.696 Y25.807 E25.76492
G1 X69.594 Y25.86 E25.77066
G1 X68.595 Y26.383 E25.82691
G1 X68.586 Y26.388 E25.82743
G1 X68.569 Y26.394 E25.82833
G1 X66.833 Y27.027 E25.92051
G1 X66.812 Y27.035 E25.92163
G1 X66.796 Y27.037 E25.92244
G1 X64.833 Y27.382 E26.02187
G1 X64.812 Y27.386 E26.02294
G1 X64.79 Y27.386 E26.02404
G1 X64.03 Y27.372 E26.06196
G1 X63.603 Y28.077 E26.10308
G1 X63.121 Y28.872 E26.14947
G1 X62.567 Y30.052 E26.2145
G1 X62.419 Y30.494 E26.23776
G1 X62.567 Y30.936 E26.26101
G1 X63.121 Y32.116 E26.32605
G1 X63.602 Y32.91 E26.37236
G1 X64.03 Y33.616 E26.41355
G1 X64.79 Y33.603 E26.45147
G1 X64.812 Y33.602 E26.45257
G1 X64.832 Y33.605 E26.45358
G1 X66.795 Y33.95 E26.55302
G1 X66.812 Y33.953 E26.55388
G1 X66.832 Y33.96 E26.55493
G1 X68.569 Y34.594 E26.64719
G1 X68.589 Y34.602 E26.64826
G1 X69.596 Y35.128 E26.70494
G1 X69.697 Y35.18 E26.71061
G1 X70.175 Y35.431 E26.73754
G1 X70.891 Y35.87 E26.77945
G1 X71.376 Y35.598 E26.80719
G1 X71.505 Y35.525 E26.81318
G1 X71.505 Y25.463 E27.09556
G1 X71.376 Y25.39 E27.10155
G1 X70.891 Y25.118 E27.12929
G0 F3600 X70.89 Y25.019
G0 X69.363 Y24.693
G0 X69.298 Y24.768
G1 F1800 X68.007 Y24.693 E27.16566
G1 X67.992 Y24.692 E27.16625
G1 X66.461 Y24.447 E27.21003
G1 X66.448 Y24.444 E27.21055
G1 X65.078 Y24.082 E27.25051
G1 X65.068 Y24.079 E27.25092
G1 X63.8 Y23.627 E27.28888
G1 X63.788 Y23.622 E27.28938
G1 X62.598 Y23.114 E27.32563
G1 X62.513 Y23.075 E27.32832
G1 X61.409 Y22.56 E27.38909
G1 X60.691 Y22.849 E27.42771
G1 X58.62 Y24.068 E27.5476
G1 X58.406 Y24.194 E27.55999
G1 X58.036 Y24.412 E27.58141
G1 X57.285 Y25.033 E27.63003
G1 X57.405 Y25.722 E27.66492
G1 X59.861 Y26.592 E27.79491
G1 X62.522 Y27.119 E27.93025
G1 X63.079 Y27.128 E27.95804
G1 X64.034 Y27.146 E28.0057
G1 X64.794 Y27.161 E28.02709
G1 X66.756 Y26.817 E28.0826
G1 X68.491 Y26.183 E28.1341
G1 X69.49 Y25.662 E28.16555
G1 X69.466 Y25.549 E28.1703
G1 X69.322 Y24.879 E28.20449
G1 X69.298 Y24.768 E28.20918
G0 F3600 X69.363 Y24.693
G0 X71.533 Y24.522
G0 X71.531 Y20.115
G0 X70.031 Y20.317
G0 X64.97 Y21.153
G0 X65.036 Y21.079
G1 F1800 X66.069 Y20.799 E28.23921
G1 X66.079 Y20.796 E28.23973
G1 X68.851 Y20.29 E28.31892
G1 X71.475 Y19.924 E28.39285
G1 X71.505 Y19.919
G1 X71.505 Y16.896 E28.47769
G1 X70.353 Y17.258 E28.5115
G1 X70.324 Y17.267 E28.51268
G1 X70.294 Y17.268 E28.51418
G1 X69.11 Y17.309 E28.54728
G1 X69.077 Y17.311 E28.54893
G1 X69.05 Y17.305 E28.55001
G1 X67.971 Y17.04 E28.58121
G1 X67.949 Y17.034 E28.5821
G1 X67.923 Y17.021 E28.58323
G1 X66.922 Y16.507 E28.61477
G1 X66.905 Y16.498 E28.61552
G1 X66.89 Y16.487 E28.61625
G1 X65.949 Y15.782 E28.64916
G1 X65.593 Y15.515 E28.66306
G1 X65.523 Y15.56 E28.66667
G1 X64.992 Y15.907 E28.69832
G1 X64.889 Y15.974 E28.70445
G1 X64.997 Y16.442 E28.72841
G1 X65 Y16.453 E28.72898
