;FLAVOR:Marlin
;TIME:1921
;Filament used: 2.31786m
;Layer height: 0.2
;Generated with Cura_SteamEngine master
M190 S60
M104 S210
M109 S210
M82 ;absolute extrusion mode
G21 ;metric values
G90 ;absolute positioning
M82 ;set extruder to absolute mode
M107 ;start with the fan off
G28 X0 Y0 ;move X/Y to min endstops
G28 Z0 ;move Z to min endstops
G92 E0 ;zero the extruded length
G1 F200 E3 ;extrude 3mm of feed stock
G92 E0 ;zero the extruded length again
G1 F9000
M117 PRINTING ...
G92 E0
G1 F1500 E-6.5
;LAYER_COUNT:19
;LAYER:0
M107
G0 F3600 X40.425 Y37.542 Z0.3
;TYPE:SKIRT
G1 F1500 E0
G1 F1800 X40.542 Y37.425 E0.00825
G1 X41.128 Y36.895 E0.04767
G1 X41.764 Y36.428 E0.08704
G1 X42.444 Y36.027 E0.12642
G1 X43.162 Y35.697 E0.16585
G1 X43.909 Y35.442 E0.20523
G1 X44.678 Y35.263 E0.24462
G1 X45.462 Y35.163 E0.28405
G1 X46.078 Y35.14 E0.3148
G1 X57.55 Y35.171 E0.88715
G1 X58.339 Y35.213 E0.92657
G1 X59.119 Y35.335 E0.96595
G1 X59.883 Y35.535 E1.00535
G1 X60.623 Y35.811 E1.04476
G1 X61.331 Y36.16 E1.08414
G1 X62 Y36.58 E1.12355
G1 X62.623 Y37.064 E1.1629
G1 X63.051 Y37.462 E1.19206
G1 X79.006 Y53.453 E2.31905
G1 X95.027 Y37.426 E3.44963
G1 X95.612 Y36.896 E3.48901
G1 X96.249 Y36.429 E3.52841
G1 X96.929 Y36.028 E3.5678
G1 X97.647 Y35.698 E3.60722
G1 X98.394 Y35.442 E3.64662
G1 X99.163 Y35.263 E3.68601
G1 X99.946 Y35.163 E3.72539
G1 X100.543 Y35.14 E3.7552
G1 X111.943 Y35.14 E4.32394
G1 X112.732 Y35.18 E4.36336
G1 X113.512 Y35.299 E4.40272
G1 X114.277 Y35.497 E4.44215
G1 X115.017 Y35.771 E4.48152
G1 X115.726 Y36.119 E4.52092
G1 X116.397 Y36.537 E4.56036
G1 X117.021 Y37.02 E4.59973
G1 X117.458 Y37.425 E4.62945
G1 X117.575 Y37.542 E4.63771
G1 X118.105 Y38.128 E4.67713
G1 X118.572 Y38.764 E4.71649
G1 X118.973 Y39.444 E4.75588
G1 X119.303 Y40.162 E4.7953
G1 X119.558 Y40.909 E4.83468
G1 X119.737 Y41.678 E4.87407
G1 X119.837 Y42.462 E4.9135
G1 X119.86 Y43.078 E4.94426
G1 X119.829 Y54.55 E5.5166
G1 X119.787 Y55.339 E5.55602
G1 X119.665 Y56.119 E5.5954
G1 X119.465 Y56.883 E5.63481
G1 X119.189 Y57.623 E5.67421
G1 X118.84 Y58.331 E5.71359
G1 X118.42 Y59 E5.753
G1 X117.936 Y59.623 E5.79236
G1 X117.538 Y60.051 E5.82152
G1 X101.547 Y76.006 E6.9485
G1 X117.574 Y92.027 E8.07908
G1 X118.104 Y92.612 E8.11846
G1 X118.571 Y93.249 E8.15787
G1 X118.972 Y93.929 E8.19725
G1 X119.302 Y94.647 E8.23667
G1 X119.558 Y95.394 E8.27607
G1 X119.737 Y96.163 E8.31546
G1 X119.837 Y96.946 E8.35484
G1 X119.86 Y97.543 E8.38465
G1 X119.86 Y108.943 E8.9534
G1 X119.82 Y109.732 E8.99281
G1 X119.701 Y110.512 E9.03218
G1 X119.503 Y111.277 E9.0716
G1 X119.229 Y112.017 E9.11097
G1 X118.881 Y112.726 E9.15037
G1 X118.463 Y113.397 E9.18981
G1 X117.98 Y114.021 E9.22918
G1 X117.575 Y114.458 E9.2589
G1 X117.458 Y114.575 E9.26716
G1 X116.872 Y115.105 E9.30658
G1 X116.236 Y115.572 E9.34594
G1 X115.556 Y115.973 E9.38533
G1 X114.838 Y116.303 E9.42475
G1 X114.091 Y116.558 E9.46413
G1 X113.322 Y116.737 E9.50352
G1 X112.538 Y116.837 E9.54295
G1 X111.922 Y116.86 E9.57371
G1 X100.45 Y116.829 E10.14605
G1 X99.661 Y116.787 E10.18547
G1 X98.881 Y116.665 E10.22486
G1 X98.117 Y116.465 E10.26426
G1 X97.377 Y116.189 E10.30366
G1 X96.669 Y115.84 E10.34304
G1 X96 Y115.42 E10.38245
G1 X95.377 Y114.936 E10.42181
G1 X94.949 Y114.538 E10.45097
G1 X78.994 Y98.547 E11.57795
G1 X62.973 Y114.574 E12.70853
G1 X62.388 Y115.104 E12.74791
G1 X61.751 Y115.571 E12.78732
G1 X61.071 Y115.972 E12.8267
G1 X60.353 Y116.302 E12.86613
G1 X59.606 Y116.558 E12.90552
G1 X58.837 Y116.737 E12.94491
G1 X58.054 Y116.837 E12.98429
G1 X57.457 Y116.86 E13.0141
G1 X46.057 Y116.86 E13.58285
G1 X45.268 Y116.82 E13.62226
G1 X44.488 Y116.701 E13.66163
G1 X43.723 Y116.503 E13.70105
G1 X42.983 Y116.229 E13.74042
G1 X42.274 Y115.881 E13.77982
G1 X41.603 Y115.463 E13.81926
G1 X40.979 Y114.98 E13.85863
G1 X40.542 Y114.575 E13.88836
G1 X40.425 Y114.458 E13.89661
G1 X39.895 Y113.872 E13.93603
G1 X39.428 Y113.236 E13.9754
G1 X39.027 Y112.556 E14.01478
G1 X38.697 Y111.838 E14.05421
G1 X38.442 Y111.091 E14.09358
G1 X38.263 Y110.322 E14.13298
G1 X38.163 Y109.538 E14.17241
G1 X38.14 Y108.922 E14.20316
G1 X38.171 Y97.45 E14.7755
G1 X38.213 Y96.661 E14.81492
G1 X38.335 Y95.881 E14.85431
G1 X38.535 Y95.117 E14.89371
G1 X38.811 Y94.377 E14.93311
G1 X39.16 Y93.669 E14.97249
G1 X39.58 Y93 E15.0119
G1 X40.064 Y92.377 E15.05126
G1 X40.462 Y91.949 E15.08042
G1 X56.453 Y75.994 E16.2074
G1 X40.426 Y59.973 E17.33798
G1 X39.896 Y59.388 E17.37736
G1 X39.429 Y58.751 E17.41677
G1 X39.028 Y58.071 E17.45615
G1 X38.698 Y57.353 E17.49558
G1 X38.442 Y56.606 E17.53497
G1 X38.263 Y55.837 E17.57437
G1 X38.163 Y55.054 E17.61375
G1 X38.14 Y54.457 E17.64355
G1 X38.14 Y43.057 E18.2123
G1 X38.18 Y42.268 E18.25172
G1 X38.299 Y41.488 E18.29108
G1 X38.497 Y40.723 E18.3305
G1 X38.771 Y39.983 E18.36987
G1 X39.119 Y39.274 E18.40928
G1 X39.537 Y38.603 E18.44872
G1 X40.02 Y37.979 E18.48808
G1 X40.425 Y37.542 E18.51781
G0 F3600 X40.707 Y37.824
G1 F1800 X40.824 Y37.707 E18.52606
G1 X41.396 Y37.193 E18.56443
G1 X42.018 Y36.74 E18.60282
G1 X42.683 Y36.354 E18.64118
G1 X43.385 Y36.039 E18.67957
G1 X44.116 Y35.799 E18.71795
G1 X44.867 Y35.636 E18.75629
G1 X45.632 Y35.552 E18.79469
G1 X46.077 Y35.54 E18.8169
G1 X57.549 Y35.571 E19.38924
G1 X58.317 Y35.613 E19.42761
G1 X59.076 Y35.735 E19.46597
G1 X59.819 Y35.934 E19.50434
G1 X60.537 Y36.21 E19.54272
G1 X61.223 Y36.559 E19.58112
G1 X61.868 Y36.977 E19.61946
G1 X62.467 Y37.46 E19.65785
G1 X62.768 Y37.744 E19.6785
G1 X79.005 Y54.018 E20.82541
G1 X95.309 Y37.708 E21.97596
G1 X95.881 Y37.193 E22.01436
G1 X96.502 Y36.741 E22.05268
G1 X97.168 Y36.355 E22.09108
G1 X97.87 Y36.04 E22.12947
G1 X98.6 Y35.8 E22.16781
G1 X99.352 Y35.636 E22.20621
G1 X100.116 Y35.552 E22.24455
G1 X100.543 Y35.54 E22.26586
G1 X111.943 Y35.54 E22.83461
G1 X112.711 Y35.58 E22.87298
G1 X113.471 Y35.699 E22.91136
G1 X114.214 Y35.897 E22.94972
G1 X114.933 Y36.171 E22.98811
G1 X115.619 Y36.518 E23.02646
G1 X116.266 Y36.934 E23.06484
G1 X116.866 Y37.415 E23.1032
G1 X117.176 Y37.707 E23.12445
G1 X117.293 Y37.824 E23.1327
G1 X117.807 Y38.396 E23.17107
G1 X118.26 Y39.018 E23.20946
G1 X118.646 Y39.683 E23.24782
G1 X118.961 Y40.385 E23.28621
G1 X119.201 Y41.116 E23.32459
G1 X119.364 Y41.867 E23.36293
G1 X119.448 Y42.632 E23.40133
G1 X119.46 Y43.077 E23.42354
G1 X119.429 Y54.549 E23.99588
G1 X119.387 Y55.317 E24.03425
G1 X119.265 Y56.076 E24.07261
G1 X119.066 Y56.819 E24.11098
G1 X118.79 Y57.537 E24.14936
G1 X118.441 Y58.223 E24.18776
G1 X118.023 Y58.868 E24.2261
G1 X117.54 Y59.467 E24.26449
G1 X117.256 Y59.768 E24.28514
G1 X100.982 Y76.005 E25.43205
G1 X117.292 Y92.309 E26.5826
G1 X117.807 Y92.881 E26.621
G1 X118.259 Y93.502 E26.65932
G1 X118.645 Y94.168 E26.69772
G1 X118.96 Y94.87 E26.73611
G1 X119.2 Y95.6 E26.77445
G1 X119.364 Y96.352 E26.81285
G1 X119.448 Y97.116 E26.85119
G1 X119.46 Y97.543 E26.8725
G1 X119.46 Y108.943 E27.44125
G1 X119.42 Y109.711 E27.47962
G1 X119.301 Y110.471 E27.518
G1 X119.103 Y111.214 E27.55636
G1 X118.829 Y111.933 E27.59475
G1 X118.482 Y112.619 E27.6331
G1 X118.066 Y113.266 E27.67148
G1 X117.585 Y113.866 E27.70984
G1 X117.293 Y114.176 E27.73109
G1 X117.176 Y114.293 E27.73934
G1 X116.604 Y114.807 E27.77771
G1 X115.982 Y115.26 E27.8161
G1 X115.317 Y115.646 E27.85446
G1 X114.615 Y115.961 E27.89285
G1 X113.884 Y116.201 E27.93123
G1 X113.133 Y116.364 E27.96957
G1 X112.368 Y116.448 E28.00797
G1 X111.923 Y116.46 E28.03018
G1 X100.451 Y116.429 E28.60252
G1 X99.683 Y116.387 E28.64089
G1 X98.924 Y116.265 E28.67924
G1 X98.181 Y116.066 E28.71762
G1 X97.463 Y115.79 E28.756
G1 X96.777 Y115.441 E28.7944
G1 X96.132 Y115.023 E28.83274
G1 X95.533 Y114.54 E28.87113
G1 X95.232 Y114.256 E28.89178
G1 X78.995 Y97.982 E30.03869
G1 X62.691 Y114.292 E31.18924
G1 X62.119 Y114.807 E31.22764
G1 X61.498 Y115.259 E31.26596
G1 X60.832 Y115.645 E31.30436
G1 X60.13 Y115.96 E31.34275
G1 X59.4 Y116.2 E31.38109
G1 X58.648 Y116.364 E31.41948
G1 X57.884 Y116.448 E31.45783
G1 X57.457 Y116.46 E31.47914
G1 X46.057 Y116.46 E32.04789
G1 X45.289 Y116.42 E32.08626
G1 X44.529 Y116.301 E32.12464
G1 X43.786 Y116.103 E32.163
G1 X43.067 Y115.829 E32.20139
G1 X42.381 Y115.482 E32.23974
G1 X41.734 Y115.066 E32.27812
G1 X41.134 Y114.585 E32.31648
G1 X40.824 Y114.293 E32.33773
G1 X40.707 Y114.176 E32.34598
G1 X40.193 Y113.604 E32.38435
G1 X39.74 Y112.982 E32.42274
G1 X39.354 Y112.317 E32.4611
G1 X39.039 Y111.615 E32.49949
G1 X38.799 Y110.884 E32.53787
G1 X38.636 Y110.133 E32.57621
G1 X38.552 Y109.368 E32.61461
G1 X38.54 Y108.923 E32.63682
G1 X38.571 Y97.451 E33.20916
G1 X38.613 Y96.683 E33.24753
G1 X38.735 Y95.924 E33.28588
G1 X38.934 Y95.181 E33.32426
G1 X39.21 Y94.463 E33.36264
G1 X39.559 Y93.777 E33.40103
G1 X39.977 Y93.132 E33.43938
G1 X40.46 Y92.533 E33.47777
G1 X40.744 Y92.232 E33.49842
G1 X57.018 Y75.995 E34.64533
G1 X40.708 Y59.691 E35.79588
G1 X40.193 Y59.119 E35.83428
G1 X39.741 Y58.498 E35.8726
G1 X39.355 Y57.832 E35.911
G1 X39.04 Y57.13 E35.94939
G1 X38.8 Y56.4 E35.98773
G1 X38.636 Y55.648 E36.02612
G1 X38.552 Y54.884 E36.06447
G1 X38.54 Y54.457 E36.08578
G1 X38.54 Y43.057 E36.65453
G1 X38.58 Y42.289 E36.6929
G1 X38.699 Y41.529 E36.73128
G1 X38.897 Y40.786 E36.76964
G1 X39.171 Y40.067 E36.80803
G1 X39.518 Y39.381 E36.84638
G1 X39.934 Y38.734 E36.88476
G1 X40.415 Y38.134 E36.92312
G1 X40.707 Y37.824 E36.94437
G0 F3600 X40.99 Y38.107
G1 F1800 X41.107 Y37.99 E36.95262
G1 X41.664 Y37.49 E36.98997
G1 X42.27 Y37.053 E37.02724
G1 X42.92 Y36.682 E37.06458
G1 X43.606 Y36.383 E37.10191
G1 X44.32 Y36.159 E37.13925
G1 X45.053 Y36.012 E37.17654
G1 X46.076 Y35.94 E37.22771
G1 X57.548 Y35.971 E37.80005
G1 X58.295 Y36.013 E37.83738
G1 X59.033 Y36.134 E37.87469
G1 X59.754 Y36.334 E37.91202
G1 X60.449 Y36.609 E37.94931
G1 X61.112 Y36.957 E37.98666
G1 X61.733 Y37.374 E38.02398
G1 X62.484 Y38.027 E38.07363
G1 X79.004 Y54.585 E39.24055
G1 X95.592 Y37.991 E40.41113
G1 X96.149 Y37.491 E40.44848
G1 X96.755 Y37.053 E40.48578
G1 X97.405 Y36.683 E40.52309
G1 X98.091 Y36.384 E40.56043
G1 X98.804 Y36.159 E40.59773
G1 X99.538 Y36.013 E40.63507
G1 X100.543 Y35.94 E40.68534
G1 X111.943 Y35.94 E41.25409
G1 X112.69 Y35.98 E41.29141
G1 X113.428 Y36.099 E41.3287
G1 X114.15 Y36.297 E41.36605
G1 X114.846 Y36.57 E41.40335
G1 X115.509 Y36.917 E41.44069
G1 X116.132 Y37.332 E41.47803
G1 X116.893 Y37.99 E41.52822
G1 X117.01 Y38.107 E41.53648
G1 X117.51 Y38.664 E41.57382
G1 X117.947 Y39.27 E41.6111
G1 X118.318 Y39.92 E41.64843
G1 X118.617 Y40.606 E41.68577
G1 X118.841 Y41.32 E41.7231
G1 X118.988 Y42.053 E41.7604
G1 X119.06 Y43.076 E41.81156
G1 X119.029 Y54.548 E42.38391
G1 X118.987 Y55.295 E42.42123
G1 X118.866 Y56.033 E42.45854
G1 X118.666 Y56.754 E42.49587
G1 X118.391 Y57.449 E42.53316
G1 X118.043 Y58.112 E42.57052
G1 X117.626 Y58.733 E42.60784
G1 X116.973 Y59.484 E42.65749
G1 X100.415 Y76.004 E43.8244
G1 X117.009 Y92.592 E44.99499
G1 X117.509 Y93.149 E45.03233
G1 X117.947 Y93.755 E45.06964
G1 X118.317 Y94.405 E45.10695
G1 X118.616 Y95.091 E45.14428
G1 X118.841 Y95.804 E45.18159
G1 X118.987 Y96.538 E45.21892
G1 X119.06 Y97.543 E45.26919
G1 X119.06 Y108.943 E45.83794
G1 X119.02 Y109.69 E45.87526
G1 X118.901 Y110.428 E45.91256
G1 X118.703 Y111.15 E45.94991
G1 X118.43 Y111.846 E45.98721
G1 X118.083 Y112.509 E46.02454
G1 X117.668 Y113.132 E46.06189
G1 X117.01 Y113.893 E46.11208
G1 X116.893 Y114.01 E46.12033
G1 X116.336 Y114.51 E46.15768
G1 X115.73 Y114.947 E46.19495
G1 X115.08 Y115.318 E46.23229
G1 X114.394 Y115.617 E46.26962
G1 X113.68 Y115.841 E46.30696
G1 X112.947 Y115.988 E46.34426
G1 X111.924 Y116.06 E46.39542
G1 X100.452 Y116.029 E46.96776
G1 X99.705 Y115.987 E47.00509
G1 X98.967 Y115.866 E47.0424
G1 X98.246 Y115.666 E47.07973
G1 X97.551 Y115.391 E47.11702
G1 X96.888 Y115.043 E47.15437
G1 X96.267 Y114.626 E47.19169
G1 X95.516 Y113.973 E47.24134
G1 X78.996 Y97.415 E48.40826
G1 X62.408 Y114.009 E49.57885
G1 X61.851 Y114.509 E49.61619
G1 X61.245 Y114.947 E49.65349
G1 X60.595 Y115.317 E49.69081
G1 X59.909 Y115.616 E49.72814
G1 X59.196 Y115.841 E49.76544
G1 X58.462 Y115.987 E49.80278
G1 X57.457 Y116.06 E49.85305
G1 X46.057 Y116.06 E50.4218
G1 X45.31 Y116.02 E50.45912
G1 X44.572 Y115.901 E50.49641
G1 X43.85 Y115.703 E50.53376
G1 X43.154 Y115.43 E50.57106
G1 X42.491 Y115.083 E50.6084
G1 X41.868 Y114.668 E50.64574
G1 X41.107 Y114.01 E50.69593
G1 X40.99 Y113.893 E50.70419
G1 X40.49 Y113.336 E50.74153
G1 X40.053 Y112.73 E50.77881
G1 X39.682 Y112.08 E50.81615
G1 X39.383 Y111.394 E50.85348
G1 X39.159 Y110.68 E50.89081
G1 X39.012 Y109.947 E50.92811
G1 X38.94 Y108.924 E50.97928
G1 X38.971 Y97.452 E51.55162
G1 X39.013 Y96.705 E51.58894
G1 X39.134 Y95.967 E51.62625
G1 X39.334 Y95.246 E51.66358
G1 X39.609 Y94.551 E51.70087
G1 X39.957 Y93.888 E51.73823
G1 X40.374 Y93.267 E51.77555
G1 X41.027 Y92.516 E51.8252
G1 X57.585 Y75.996 E52.99212
G1 X40.991 Y59.408 E54.1627
G1 X40.491 Y58.851 E54.20004
G1 X40.053 Y58.245 E54.23735
G1 X39.683 Y57.595 E54.27466
G1 X39.384 Y56.909 E54.312
G1 X39.159 Y56.196 E54.3493
G1 X39.013 Y55.462 E54.38663
G1 X38.94 Y54.457 E54.43691
G1 X38.94 Y43.057 E55.00565
G1 X38.98 Y42.31 E55.04297
G1 X39.099 Y41.572 E55.08027
G1 X39.297 Y40.85 E55.11762
G1 X39.57 Y40.154 E55.15492
G1 X39.917 Y39.491 E55.19225
G1 X40.332 Y38.868 E55.2296
G1 X40.99 Y38.107 E55.27979
G0 F3600 X41.273 Y38.39
G1 F1800 X41.39 Y38.273 E55.28805
G1 X41.931 Y37.789 E55.32426
G1 X42.522 Y37.366 E55.36052
G1 X43.156 Y37.012 E55.39675
G1 X43.825 Y36.729 E55.43299
G1 X44.521 Y36.521 E55.46923
G1 X45.236 Y36.391 E55.50548
G1 X46.075 Y36.34 E55.54742
G1 X57.547 Y36.371 E56.11976
G1 X58.272 Y36.413 E56.15599
G1 X58.988 Y36.534 E56.19222
G1 X59.687 Y36.734 E56.22849
G1 X60.359 Y37.009 E56.26472
G1 X60.997 Y37.356 E56.30095
G1 X61.593 Y37.771 E56.33718
G1 X62.201 Y38.309 E56.37769
G1 X79.004 Y55.151 E57.56461
G1 X95.875 Y38.274 E58.75516
G1 X96.416 Y37.789 E58.79141
G1 X97.007 Y37.367 E58.82764
G1 X97.641 Y37.012 E58.86389
G1 X98.31 Y36.729 E58.90013
G1 X99.006 Y36.521 E58.93637
G1 X99.721 Y36.391 E58.97263
G1 X100.543 Y36.34 E59.01372
G1 X111.943 Y36.34 E59.58246
G1 X112.668 Y36.38 E59.61869
G1 X113.385 Y36.499 E59.65495
G1 X114.084 Y36.697 E59.69119
G1 X114.757 Y36.97 E59.72743
G1 X115.396 Y37.315 E59.76366
G1 X115.993 Y37.729 E59.7999
G1 X116.61 Y38.273 E59.84094
G1 X116.727 Y38.39 E59.8492
G1 X117.211 Y38.931 E59.88541
G1 X117.634 Y39.522 E59.92167
G1 X117.988 Y40.156 E59.9579
G1 X118.271 Y40.825 E59.99414
G1 X118.479 Y41.521 E60.03038
G1 X118.609 Y42.236 E60.06664
G1 X118.66 Y43.075 E60.10857
G1 X118.629 Y54.547 E60.68091
G1 X118.587 Y55.272 E60.71714
G1 X118.466 Y55.988 E60.75337
G1 X118.266 Y56.687 E60.78964
G1 X117.991 Y57.359 E60.82587
G1 X117.644 Y57.997 E60.8621
G1 X117.229 Y58.593 E60.89834
G1 X116.691 Y59.201 E60.93884
G1 X99.849 Y76.004 E62.12576
G1 X116.726 Y92.875 E63.31631
G1 X117.211 Y93.416 E63.35256
G1 X117.633 Y94.007 E63.38879
G1 X117.988 Y94.641 E63.42504
G1 X118.271 Y95.31 E63.46128
G1 X118.479 Y96.006 E63.49752
G1 X118.609 Y96.721 E63.53378
G1 X118.66 Y97.543 E63.57487
G1 X118.66 Y108.943 E64.14361
G1 X118.62 Y109.668 E64.17984
G1 X118.501 Y110.385 E64.2161
G1 X118.303 Y111.084 E64.25235
G1 X118.03 Y111.757 E64.28858
G1 X117.685 Y112.396 E64.32481
G1 X117.271 Y112.993 E64.36105
G1 X116.727 Y113.61 E64.40209
G1 X116.61 Y113.727 E64.41035
G1 X116.069 Y114.211 E64.44656
G1 X115.478 Y114.634 E64.48282
G1 X114.844 Y114.988 E64.51905
G1 X114.175 Y115.271 E64.55529
G1 X113.479 Y115.479 E64.59153
G1 X112.764 Y115.609 E64.62779
G1 X111.925 Y115.66 E64.66972
G1 X100.453 Y115.629 E65.24206
G1 X99.728 Y115.587 E65.2783
G1 X99.012 Y115.466 E65.31452
G1 X98.313 Y115.266 E65.3508
G1 X97.641 Y114.991 E65.38702
G1 X97.003 Y114.644 E65.42325
G1 X96.407 Y114.229 E65.45949
G1 X95.799 Y113.691 E65.49999
G1 X78.996 Y96.849 E66.68691
G1 X62.125 Y113.726 E67.87746
G1 X61.584 Y114.211 E67.91371
G1 X60.993 Y114.633 E67.94994
G1 X60.359 Y114.988 E67.98619
G1 X59.69 Y115.271 E68.02243
G1 X58.994 Y115.479 E68.05867
G1 X58.279 Y115.609 E68.09493
G1 X57.457 Y115.66 E68.13602
G1 X46.057 Y115.66 E68.70477
G1 X45.332 Y115.62 E68.74099
G1 X44.615 Y115.501 E68.77725
G1 X43.916 Y115.303 E68.8135
G1 X43.243 Y115.03 E68.84973
G1 X42.604 Y114.685 E68.88596
