;FLAVOR:Marlin
;TIME:3710
;Filament used: 2.81893m
;Layer height: 0.15
;Generated with Cura_SteamEngine master
M190 S60
M104 S210
M109 S210
M82 ;absolute extrusion mode
G21 ;metric values
G90 ;absolute positioning
M82 ;set extruder to absolute mode
M107 ;start with the fan off
G28 X0 Y0 ;move X/Y to min endstops
G28 Z0 ;move Z to min endstops
G92 E0 ;zero the extruded length
G1 F200 E3 ;extrude 3mm of feed stock
G92 E0 ;zero the extruded length again
G1 F9000
M117 PRINTING ...
G92 E0
G1 F1500 E-6.5
;LAYER_COUNT:56
;LAYER:0
M107
G0 F3600 X56.118 Y41.92 Z0.3
;TYPE:SKIRT
G1 F1500 E0
G1 F1800 X57.569 Y39.912 E0.12502
G1 X57.869 Y39.545 E0.14894
G1 X58.614 Y38.736 E0.20444
G1 X58.885 Y38.469 E0.22364
G1 X60.433 Y37.08 E0.3286
G1 X60.799 Y36.788 E0.35223
G1 X62.095 Y35.874 E0.43226
G1 X62.37 Y35.696 E0.44879
G1 X63.248 Y35.179 E0.50021
G1 X63.532 Y35.027 E0.51647
G1 X64.962 Y34.333 E0.59668
G1 X65.318 Y34.181 E0.61622
G1 X66.751 Y33.65 E0.69334
G1 X67.117 Y33.534 E0.71272
G1 X68.632 Y33.133 E0.7918
G1 X68.993 Y33.055 E0.81044
G1 X70.159 Y32.859 E0.87011
G1 X70.479 Y32.819 E0.88638
G1 X72.036 Y32.685 E0.96525
G1 X72.424 Y32.67 E0.98484
G1 X73.943 Y32.687 E1.06151
G1 X74.33 Y32.71 E1.08107
G1 X75.942 Y32.885 E1.1629
G1 X76.339 Y32.949 E1.18319
G1 X77.882 Y33.276 E1.26279
G1 X78.267 Y33.378 E1.28289
G1 X79.755 Y33.852 E1.3617
G1 X80.112 Y33.984 E1.38091
G1 X81.529 Y34.589 E1.45866
G1 X82.037 Y34.85 E1.48748
G1 X89.293 Y39.263 E1.91606
G1 X94.054 Y41.845 E2.18939
G1 X98.979 Y44.165 E2.46413
G1 X104.08 Y46.227 E2.74179
G1 X106.527 Y47.094 E2.8728
G1 X111.86 Y48.738 E3.15443
G1 X115.639 Y49.817 E3.35276
G1 X116.116 Y49.986 E3.37829
G1 X117.552 Y50.601 E3.45713
G1 X117.998 Y50.826 E3.48234
G1 X120.162 Y52.093 E3.60889
G1 X120.545 Y52.348 E3.63211
G1 X121.364 Y52.964 E3.68382
G1 X121.665 Y53.214 E3.70357
G1 X123.251 Y54.67 E3.81222
G1 X123.535 Y54.959 E3.83267
G1 X124.21 Y55.718 E3.88393
G1 X124.442 Y56.004 E3.90251
G1 X125.66 Y57.658 E4.00617
G1 X125.956 Y58.124 E4.03403
G1 X127.004 Y60.058 E4.14504
G1 X127.198 Y60.472 E4.16811
G1 X127.782 Y61.925 E4.24714
G1 X127.922 Y62.336 E4.26905
G1 X128.458 Y64.246 E4.36916
G1 X128.552 Y64.664 E4.39078
G1 X128.748 Y65.83 E4.45045
G1 X128.793 Y66.204 E4.46946
G1 X128.949 Y68.356 E4.57835
G1 X128.954 Y68.838 E4.60267
G1 X128.887 Y70.224 E4.6727
G1 X128.855 Y70.573 E4.69039
G1 X128.646 Y72.102 E4.76827
G1 X128.575 Y72.481 E4.78773
G1 X128.215 Y74.002 E4.8666
G1 X128.105 Y74.383 E4.88662
G1 X127.587 Y75.888 E4.96694
G1 X127.438 Y76.259 E4.98712
G1 X126.773 Y77.703 E5.06734
G1 X126.589 Y78.055 E5.08739
G1 X125.716 Y79.542 E5.17441
G1 X125.396 Y80.009 E5.20298
G1 X123.805 Y82.007 E5.33187
G1 X123.439 Y82.407 E5.35923
G1 X122.022 Y83.761 E5.45814
G1 X121.679 Y84.054 E5.4809
G1 X120.418 Y85.012 E5.56082
G1 X120.098 Y85.232 E5.58042
G1 X118.783 Y86.043 E5.65838
G1 X118.499 Y86.202 E5.67481
G1 X114.526 Y88.227 E5.89985
G1 X109.765 Y90.945 E6.17651
G1 X105.24 Y93.881 E6.44872
G1 X100.851 Y97.096 E6.72328
G1 X96.646 Y100.557 E6.99812
G1 X91.836 Y105.004 E7.32871
G1 X91.607 Y105.2 E7.34392
G1 X90.362 Y106.188 E7.42413
G1 X90.037 Y106.421 E7.44431
G1 X88.769 Y107.235 E7.52035
G1 X88.442 Y107.424 E7.53941
G1 X87.079 Y108.127 E7.6168
G1 X86.788 Y108.263 E7.63301
G1 X85.886 Y108.64 E7.68235
G1 X85.603 Y108.745 E7.69758
G1 X84.262 Y109.19 E7.76889
G1 X83.941 Y109.282 E7.78574
G1 X82.711 Y109.579 E7.84959
G1 X82.315 Y109.654 E7.86993
G1 X80.39 Y109.918 E7.96799
G1 X79.87 Y109.955 E7.9943
G1 X77.649 Y109.968 E8.10638
G1 X77.096 Y109.933 E8.13435
G1 X75.015 Y109.655 E8.2403
G1 X74.541 Y109.562 E8.26467
G1 X72.805 Y109.112 E8.35518
G1 X72.308 Y108.948 E8.38159
G1 X70.109 Y108.058 E8.50131
G1 X69.665 Y107.845 E8.52616
G1 X68.328 Y107.101 E8.60337
G1 X67.98 Y106.883 E8.6241
G1 X66.608 Y105.923 E8.7086
G1 X66.21 Y105.606 E8.73428
G1 X64.452 Y104.008 E8.85417
G1 X64.132 Y103.681 E8.87726
G1 X63.288 Y102.716 E8.94196
G1 X63.078 Y102.455 E8.95886
G1 X62.273 Y101.362 E9.02737
G1 X62.011 Y100.957 E9.05171
G1 X60.765 Y98.75 E9.17961
G1 X60.565 Y98.344 E9.20245
G1 X60.17 Y97.412 E9.25353
G1 X60.01 Y96.959 E9.27778
G1 X59.236 Y94.275 E9.41875
G1 X59.104 Y93.614 E9.45276
G1 X58.818 Y91.069 E9.58201
G1 X58.793 Y90.633 E9.60404
G1 X58.785 Y87.785 E9.74777
G1 X58.564 Y82.308 E10.02439
G1 X58.041 Y76.917 E10.29773
G1 X57.204 Y71.515 E10.5736
G1 X56.695 Y68.937 E10.70621
G1 X55.393 Y63.585 E10.98417
G1 X53.578 Y57.439 E11.30758
G1 X53.481 Y57.033 E11.32864
G1 X53.2 Y55.512 E11.4067
G1 X53.148 Y55.127 E11.4263
G1 X53.015 Y53.576 E11.50486
G1 X53 Y53.192 E11.52426
G1 X53.016 Y51.654 E11.60188
G1 X53.04 Y51.26 E11.6218
G1 X53.215 Y49.663 E11.70287
G1 X53.278 Y49.271 E11.72291
G1 X53.605 Y47.726 E11.8026
G1 X53.707 Y47.34 E11.82275
G1 X54.181 Y45.852 E11.90156
G1 X54.315 Y45.491 E11.921
G1 X54.93 Y44.055 E11.99983
G1 X55.103 Y43.7 E12.01976
G1 X55.856 Y42.333 E12.09852
G1 X56.118 Y41.92 E12.1232
G0 F3600 X56.442 Y42.154
G1 F1800 X57.893 Y40.146 E12.24822
G1 X58.163 Y39.816 E12.26974
G1 X58.908 Y39.007 E12.32524
G1 X59.152 Y38.767 E12.34251
G1 X60.7 Y37.378 E12.44747
G1 X61.029 Y37.115 E12.46873
G1 X62.325 Y36.201 E12.54876
G1 X62.573 Y36.041 E12.56365
G1 X63.451 Y35.524 E12.61507
G1 X63.706 Y35.387 E12.62968
G1 X65.136 Y34.693 E12.7099
G1 X65.457 Y34.556 E12.72751
G1 X66.89 Y34.025 E12.80463
G1 X67.22 Y33.921 E12.82209
G1 X68.735 Y33.52 E12.90118
G1 X69.059 Y33.45 E12.91791
G1 X70.225 Y33.254 E12.97758
G1 X70.513 Y33.217 E12.99223
G1 X72.07 Y33.083 E13.07109
G1 X72.419 Y33.07 E13.08872
G1 X73.938 Y33.087 E13.16538
G1 X74.287 Y33.108 E13.18303
G1 X75.899 Y33.283 E13.26485
G1 X76.256 Y33.34 E13.2831
G1 X77.799 Y33.667 E13.36269
G1 X78.146 Y33.759 E13.38081
G1 X79.634 Y34.233 E13.45962
G1 X79.955 Y34.352 E13.4769
G1 X81.372 Y34.957 E13.55465
G1 X81.829 Y35.192 E13.58059
G1 X89.082 Y39.603 E14.00899
G1 X93.885 Y42.208 E14.28473
G1 X98.816 Y44.531 E14.5598
G1 X103.93 Y46.598 E14.83816
G1 X106.424 Y47.482 E14.9717
G1 X111.678 Y49.101 E15.24914
G1 X115.53 Y50.201 E15.45131
G1 X115.958 Y50.354 E15.47425
G1 X117.394 Y50.969 E15.55308
G1 X117.796 Y51.171 E15.57578
G1 X119.96 Y52.438 E15.70233
G1 X120.305 Y52.668 E15.72326
G1 X121.124 Y53.284 E15.77497
G1 X121.395 Y53.509 E15.79275
G1 X122.981 Y54.965 E15.9014
G1 X123.236 Y55.225 E15.91978
G1 X123.911 Y55.984 E15.97104
G1 X124.12 Y56.241 E15.98775
G1 X125.338 Y57.895 E16.09141
G1 X125.604 Y58.315 E16.1165
G1 X126.652 Y60.249 E16.22751
G1 X126.827 Y60.621 E16.24826
G1 X127.411 Y62.074 E16.32729
G1 X127.537 Y62.444 E16.34701
G1 X128.073 Y64.354 E16.44712
G1 X128.157 Y64.73 E16.46657
G1 X128.353 Y65.896 E16.52623
G1 X128.394 Y66.233 E16.54337
G1 X128.55 Y68.385 E16.65225
G1 X128.555 Y68.819 E16.67416
G1 X128.488 Y70.205 E16.74418
G1 X128.459 Y70.519 E16.7601
G1 X128.25 Y72.048 E16.83797
G1 X128.186 Y72.389 E16.85548
G1 X127.826 Y73.91 E16.93436
G1 X127.727 Y74.253 E16.95238
G1 X127.209 Y75.758 E17.0327
G1 X127.075 Y76.092 E17.05086
G1 X126.41 Y77.536 E17.13109
G1 X126.245 Y77.853 E17.14913
G1 X125.372 Y79.34 E17.23614
G1 X125.083 Y79.76 E17.26187
G1 X123.492 Y81.758 E17.39076
G1 X123.163 Y82.118 E17.41538
G1 X121.746 Y83.472 E17.51428
G1 X121.437 Y83.736 E17.53479
G1 X120.176 Y84.694 E17.61471
G1 X119.888 Y84.891 E17.63232
G1 X118.573 Y85.702 E17.71029
G1 X118.318 Y85.846 E17.72507
G1 X114.308 Y87.89 E17.95221
G1 X109.583 Y90.588 E18.22679
G1 X104.992 Y93.567 E18.50298
G1 X100.614 Y96.773 E18.77682
G1 X96.385 Y100.253 E19.0532
G1 X91.565 Y104.71 E19.3845
G1 X91.359 Y104.887 E19.39821
G1 X90.114 Y105.875 E19.47842
G1 X89.821 Y106.084 E19.49658
G1 X88.553 Y106.898 E19.57262
G1 X88.258 Y107.068 E19.5898
G1 X86.895 Y107.771 E19.6672
G1 X86.633 Y107.894 E19.6818
G1 X85.731 Y108.271 E19.73114
G1 X85.477 Y108.366 E19.74482
G1 X84.136 Y108.811 E19.81613
G1 X83.847 Y108.893 E19.83129
G1 X82.617 Y109.19 E19.89514
G1 X82.261 Y109.258 E19.91343
G1 X80.336 Y109.522 E20.01149
G1 X79.868 Y109.555 E20.03517
G1 X77.647 Y109.568 E20.14725
G1 X77.149 Y109.536 E20.17243
G1 X75.068 Y109.258 E20.27839
G1 X74.642 Y109.175 E20.30029
G1 X72.906 Y108.725 E20.39079
G1 X72.458 Y108.577 E20.4146
G1 X70.259 Y107.687 E20.53432
G1 X69.859 Y107.496 E20.55669
G1 X68.522 Y106.752 E20.6339
G1 X68.209 Y106.556 E20.65254
G1 X66.837 Y105.596 E20.73705
G1 X66.48 Y105.31 E20.76013
G1 X64.722 Y103.712 E20.88002
G1 X64.433 Y103.418 E20.90083
G1 X63.589 Y102.453 E20.96553
G1 X63.4 Y102.218 E20.98074
G1 X62.595 Y101.125 E21.04925
G1 X62.359 Y100.76 E21.07118
G1 X61.113 Y98.553 E21.19908
G1 X60.933 Y98.188 E21.21962
G1 X60.538 Y97.256 E21.27071
G1 X60.394 Y96.849 E21.29249
G1 X59.62 Y94.165 E21.43346
G1 X59.502 Y93.569 E21.46412
G1 X59.216 Y91.024 E21.59336
G1 X59.193 Y90.632 E21.61318
G1 X59.185 Y87.768 E21.75771
G1 X58.964 Y82.288 E22.03449
G1 X58.438 Y76.871 E22.30915
G1 X57.598 Y71.445 E22.58623
G1 X57.083 Y68.84 E22.72024
G1 X55.784 Y63.498 E22.99768
G1 X53.961 Y57.326 E23.32245
G1 X53.874 Y56.96 E23.34144
G1 X53.593 Y55.439 E23.4195
G1 X53.546 Y55.093 E23.43712
G1 X53.413 Y53.542 E23.51568
G1 X53.4 Y53.197 E23.5331
G1 X53.416 Y51.659 E23.61072
G1 X53.437 Y51.304 E23.62867
G1 X53.612 Y49.707 E23.70974
G1 X53.669 Y49.354 E23.72779
G1 X53.996 Y47.809 E23.80748
G1 X54.088 Y47.461 E23.82565
G1 X54.562 Y45.973 E23.90446
G1 X54.683 Y45.649 E23.92191
G1 X55.298 Y44.213 E24.00075
G1 X55.454 Y43.893 E24.01871
G1 X56.207 Y42.526 E24.09747
G1 X56.442 Y42.154 E24.11968
G0 F3600 X56.766 Y42.389
G1 F1800 X58.217 Y40.381 E24.2447
G1 X58.457 Y40.087 E24.26385
G1 X59.202 Y39.278 E24.31935
G1 X59.419 Y39.064 E24.33473
G1 X60.967 Y37.675 E24.43969
G1 X61.26 Y37.442 E24.45858
G1 X62.556 Y36.528 E24.53861
G1 X62.776 Y36.386 E24.55183
G1 X63.654 Y35.869 E24.60325
G1 X63.881 Y35.747 E24.61625
G1 X65.311 Y35.053 E24.69647
G1 X65.596 Y34.931 E24.71211
G1 X67.029 Y34.4 E24.78924
G1 X67.322 Y34.308 E24.80473
G1 X68.837 Y33.907 E24.88382
G1 X69.126 Y33.844 E24.89875
G1 X70.292 Y33.648 E24.95842
G1 X70.548 Y33.616 E24.97144
G1 X72.105 Y33.482 E25.0503
G1 X72.415 Y33.47 E25.06596
G1 X73.934 Y33.487 E25.14262
G1 X74.243 Y33.506 E25.15824
G1 X75.855 Y33.681 E25.24007
G1 X76.173 Y33.732 E25.25632
G1 X77.716 Y34.059 E25.33592
G1 X78.024 Y34.14 E25.35199
G1 X79.512 Y34.614 E25.4308
G1 X79.798 Y34.72 E25.44619
G1 X81.215 Y35.325 E25.52395
G1 X81.621 Y35.534 E25.54699
G1 X88.878 Y39.948 E25.97564
G1 X93.703 Y42.565 E26.25265
G1 X98.66 Y44.9 E26.52917
G1 X103.786 Y46.971 E26.80817
G1 X106.285 Y47.857 E26.94197
G1 X111.6 Y49.495 E27.22265
G1 X115.42 Y50.586 E27.42313
G1 X115.801 Y50.721 E27.44353
G1 X117.237 Y51.336 E27.52236
G1 X117.594 Y51.517 E27.54256
G1 X119.758 Y52.784 E27.66911
G1 X120.064 Y52.988 E27.68767
G1 X120.883 Y53.604 E27.73939
G1 X121.124 Y53.804 E27.75519
G1 X122.71 Y55.26 E27.86384
G1 X122.937 Y55.49 E27.88015
G1 X123.612 Y56.249 E27.93141
G1 X123.798 Y56.479 E27.94634
G1 X125.016 Y58.133 E28.05
G1 X125.252 Y58.505 E28.07223
G1 X126.3 Y60.439 E28.18324
G1 X126.456 Y60.771 E28.20175
G1 X127.04 Y62.224 E28.28078
G1 X127.152 Y62.552 E28.29827
G1 X127.688 Y64.462 E28.39838
G1 X127.763 Y64.797 E28.41571
G1 X127.959 Y65.963 E28.47537
G1 X127.995 Y66.262 E28.49057
G1 X128.151 Y68.414 E28.59946
G1 X128.155 Y68.8 E28.61894
G1 X128.088 Y70.186 E28.68897
G1 X128.063 Y70.464 E28.70305
G1 X127.854 Y71.993 E28.78093
G1 X127.797 Y72.297 E28.79654
G1 X127.437 Y73.818 E28.87542
G1 X127.349 Y74.122 E28.89139
G1 X126.831 Y75.627 E28.97171
G1 X126.712 Y75.925 E28.98791
G1 X126.047 Y77.369 E29.06813
G1 X125.9 Y77.65 E29.08414
G1 X125.027 Y79.137 E29.17116
G1 X124.77 Y79.51 E29.19401
G1 X123.179 Y81.508 E29.32291
G1 X122.887 Y81.829 E29.34481
G1 X121.47 Y83.183 E29.44371
G1 X121.195 Y83.417 E29.46193
G1 X119.934 Y84.375 E29.54185
G1 X119.678 Y84.551 E29.55753
G1 X118.363 Y85.362 E29.6355
G1 X118.136 Y85.489 E29.64863
G1 X114.14 Y87.526 E29.87497
G1 X109.36 Y90.255 E30.15274
G1 X104.783 Y93.225 E30.42809
G1 X100.349 Y96.473 E30.70547
G1 X96.133 Y99.942 E30.98099
G1 X91.293 Y104.417 E31.31365
G1 X91.11 Y104.574 E31.32582
G1 X89.865 Y105.562 E31.40602
G1 X89.605 Y105.748 E31.42216
G1 X88.337 Y106.562 E31.4982
G1 X88.075 Y106.713 E31.51346
G1 X86.712 Y107.416 E31.59085
G1 X86.479 Y107.524 E31.60381
G1 X85.577 Y107.901 E31.65315
G1 X85.351 Y107.986 E31.66533
G1 X84.01 Y108.431 E31.73664
G1 X83.753 Y108.505 E31.75013
G1 X82.523 Y108.802 E31.81399
G1 X82.207 Y108.861 E31.83021
G1 X80.282 Y109.125 E31.92827
G1 X79.866 Y109.155 E31.94932
G1 X77.645 Y109.168 E32.0614
G1 X77.202 Y109.14 E32.0838
G1 X75.121 Y108.862 E32.18975
G1 X74.742 Y108.788 E32.20924
G1 X73.006 Y108.338 E32.29974
G1 X72.608 Y108.206 E32.3209
G1 X70.409 Y107.316 E32.44062
G1 X70.054 Y107.146 E32.46049
G1 X68.717 Y106.402 E32.5377
G1 X68.438 Y106.228 E32.55429
G1 X67.066 Y105.268 E32.6388
G1 X66.749 Y105.014 E32.6593
G1 X64.991 Y103.416 E32.77919
G1 X64.734 Y103.155 E32.79768
G1 X63.89 Y102.19 E32.86237
G1 X63.722 Y101.981 E32.87591
G1 X62.917 Y100.888 E32.94441
G1 X62.707 Y100.563 E32.96394
G1 X61.461 Y98.356 E33.09184
G1 X61.302 Y98.032 E33.11005
G1 X60.907 Y97.1 E33.16114
G1 X60.778 Y96.738 E33.18053
G1 X60.004 Y94.054 E33.3215
G1 X59.899 Y93.524 E33.34876
G1 X59.613 Y90.979 E33.47801
G1 X59.593 Y90.631 E33.4956
G1 X59.585 Y87.751 E33.64094
G1 X59.364 Y82.268 E33.91786
G1 X58.833 Y76.805 E34.19486
G1 X57.994 Y71.384 E34.47168
G1 X57.474 Y68.754 E34.60698
G1 X56.17 Y63.391 E34.88551
G1 X54.345 Y57.212 E35.21065
G1 X54.267 Y56.887 E35.22752
G1 X53.986 Y55.366 E35.30557
G1 X53.945 Y55.058 E35.32125
G1 X53.812 Y53.507 E35.39981
G1 X53.8 Y53.201 E35.41527
G1 X53.816 Y51.663 E35.49289
G1 X53.835 Y51.347 E35.50886
G1 X54.01 Y49.75 E35.58994
G1 X54.06 Y49.436 E35.60598
G1 X54.387 Y47.891 E35.68568
G1 X54.469 Y47.583 E35.70177
G1 X54.943 Y46.095 E35.78058
G1 X55.05 Y45.806 E35.79613
G1 X55.665 Y44.37 E35.87496
G1 X55.804 Y44.086 E35.89092
G1 X56.557 Y42.719 E35.96968
G1 X56.766 Y42.389 E35.98939
G1 F1500 E29.48939
G0 F3600 X61.144 Y40.902
G0 X62.094 Y41.765
G0 X74.47 Y37.414
G0 X74.479 Y37.315
;TYPE:WALL-INNER
G1 F1500 E35.98939
G1 F1800 X75.976 Y37.537 E36.06576
G1 X77.435 Y37.902 E36.14166
G1 X78.862 Y38.414 E36.21817
G1 X80.23 Y39.059 E36.2945
G1 X81.52 Y39.831 E36.37036
G1 X82.741 Y40.739 E36.44715
G1 X83.859 Y41.751 E36.52325
G1 X84.872 Y42.868 E36.59935
G1 X85.767 Y44.077 E36.67526
G1 X86.552 Y45.387 E36.75233
G1 X87.193 Y46.746 E36.82816
G1 X87.705 Y48.172 E36.90462
G1 X88.07 Y49.631 E36.98052
G1 X88.293 Y51.138 E37.0574
G1 X88.369 Y52.64 E37.1333
G1 X88.293 Y54.14 E37.20909
G1 X88.07 Y55.647 E37.28597
G1 X87.705 Y57.106 E37.36187
G1 X87.193 Y58.532 E37.43833
G1 X86.546 Y59.904 E37.51488
G1 X85.774 Y61.191 E37.59062
G1 X84.872 Y62.409 E37.66711
G1 X83.859 Y63.53 E37.74335
G1 X82.738 Y64.543 E37.8196
G1 X81.523 Y65.443 E37.89591
G1 X80.233 Y66.217 E37.97183
G1 X78.861 Y66.864 E38.04838
G1 X77.435 Y67.376 E38.12484
G1 X75.976 Y67.741 E38.20074
G1 X74.469 Y67.964 E38.27762
G1 X72.969 Y68.04 E38.35341
G1 X71.467 Y67.964 E38.42931
G1 X69.96 Y67.741 E38.50619
G1 X68.501 Y67.376 E38.58208
G1 X67.075 Y66.864 E38.65855
G1 X65.713 Y66.221 E38.73455
G1 X64.402 Y65.435 E38.81169
G1 X63.197 Y64.543 E38.88735
G1 X62.08 Y63.53 E38.96345
G1 X61.064 Y62.408 E39.03984
G1 X60.162 Y61.191 E39.11628
G1 X59.39 Y59.904 E39.19202
G1 X58.743 Y58.532 E39.26857
G1 X58.231 Y57.106 E39.34503
G1 X57.866 Y55.647 E39.42093
G1 X57.644 Y54.15 E39.4973
G1 X57.57 Y52.64 E39.5736
G1 X57.644 Y51.128 E39.64999
G1 X57.866 Y49.631 E39.72637
G1 X58.231 Y48.172 E39.80226
G1 X58.743 Y46.746 E39.87873
G1 X59.384 Y45.387 E39.95455
G1 X60.165 Y44.084 E40.03122
G1 X61.065 Y42.867 E40.1076
G1 X62.08 Y41.751 E40.18373
G1 X63.202 Y40.731 E40.26025
G1 X64.41 Y39.835 E40.33616
G1 X65.708 Y39.059 E40.41247
G1 X67.075 Y38.414 E40.48875
G1 X68.501 Y37.902 E40.56521
G1 X69.96 Y37.537 E40.64111
G1 X71.457 Y37.315 E40.71749
G1 X72.969 Y37.241 E40.79388
G1 X74.479 Y37.315 E40.87017
G0 F3600 X74.517 Y36.916
;TYPE:WALL-OUTER
G1 F1800 X76.05 Y37.143 E40.94838
G1 X77.556 Y37.52 E41.02673
G1 X79.014 Y38.043 E41.1049
G1 X80.412 Y38.702 E41.18289
G1 X81.748 Y39.502 E41.26148
G1 X82.994 Y40.428 E41.33982
G1 X84.142 Y41.467 E41.41796
